InnovativeCoder/Innovative-Hacktober/Dolores/test.csv
,index,id,theta1,theta2,theta3,theta4,theta5,theta6,thetad1,thetad2,thetad3,thetad4,thetad5,thetad6,tau1,tau2,tau3,tau4,tau5,dm1,dm2,dm3,dm4,dm5,da1,da2,da3,da4,da5,db1,db2,db3,db4,db5
0,2133,2133,2.533249494987126,-0.7927640141245873,-2.1777668703290427,-1.1106121822296071,-1.2739320764000792,-0.22805724314162845,-1.0435345358826653,3.5377940682186337,-0.42997222551083314,1.0530796437501817,-1.141982148379211,1.6836356103254189,55.74117468702901,28.64034718780406,66.1034045869332,-19.239190578331453,-28.31444837041628,2.3577882879025167,0.46196178864677934,1.877111702750715,1.4451976678717915,1.0155533450944474,1.2902471249603,1.5573584320075708,0.5614344798699256,2.746378061328467,2.9162528664059932,1.4323919766691993,-0.040618553149673164,2.2258015558311843,2.4182169747028266,1.7052861931031593
1,6389,6389,-1.1576069732310936,0.8156863226435573,2.4105771157084246,-0.3215209211014807,-0.5790138717960331,-1.0478773939481707,1.7080488451809341,-1.2432022880426565,2.2749806090576192,-1.1223524450748958,2.5437648737081813,1.0114842640824304,0.7877858670400892,4.755293696881317,14.688592429225826,-62.32177331316523,42.27953197013493,2.386273171205893,1.1887652764342849,0.34436419562222764,2.0088685292080477,2.367923849742644,1.8163082959897812,2.367484278009298,2.0889222578006486,1.4027347310561882,1.8890663451487846,1.3518931350659535,2.4375128474300567,2.8753173476840543,2.363190574870512,1.400312027496359
2,4496,4496,0.8176165375336474,1.7756673371802942,-1.579401623277451,-0.9431329292644965,0.5718775231345041,-1.1589374834101698,1.794551442037482,2.4641611564362798,-2.728984435701161,1.7165882743660164,0.04388638923626498,0.5140010502573364,-23.21512925017582,-45.08922972639666,-74.74825552486043,-73.96910349043581,-34.13555960022561,2.4015950466442724,0.818665361594141,2.1730912633577506,1.9111373325746939,2.8588700824361375,1.4019521372147157,1.3922305979549725,0.43291933794236837,1.921923213868903,1.573775453244279,1.1045500708569886,1.0973838268876672,1.959356055706374,0.11430348436931442,2.6005791676262464
3,2400,2400,1.9420090986126655,2.8975707369746533,-0.8339976934701648,-0.8681025998636259,-0.7477343022888872,2.1515143236701215,-0.45020232484321254,-0.3028394639833226,1.761964503323596,-0.7162032118189648,1.0027524121222027,2.3280057221867443,62.79589392474479,-14.882173894859813,-9.322329384176136,69.29281529687013,21.471487893431547,2.5373893337192786,2.6650846413324274,2.1494664425884817,0.8732159481320263,1.9801524380693267,1.9945785708960913,1.7290331840576387,2.3814470256667764,2.3001062305307003,0.014986157627249641,2.641324833703801,1.5817356161213598,0.960167081568549,1.5420384441417132,1.2314968997425466
4,4519,4519,-0.6916867383883305,0.389033999251909,-0.5734408193303173,-0.6523710917923076,0.6457993046988543,0.07833180363047498,-1.6185856023338727,-0.31395184222033257,2.273147102324783,1.895341618857734,-2.179040086587464,-0.9836840689453055,-29.347344544012987,-57.211465775626145,4.245981213260203,60.86332509379287,-15.974871886353059,2.6240830567670557,2.3171597482558632,2.078374816923215,2.4102105055581378,1.9971497432978662,1.3412815474333708,1.7741782413974396,1.9699088944409113,0.8790874642301483,1.592115491257101,2.7010247195282115,1.6524318597128222,0.39745745422757683,1.933247070400499,1.0848285571909195
5,2844,2844,-2.3792837481456974,0.6656377753255146,1.986123880675215,-2.1278539441068114,-1.9062358309070615,-1.5441173453694355,0.846542259603805,1.368468243011152,-1.8903703223363624,-0.45443082189338674,-1.8244003738258856,0.07915286577720787,-4.231876586131598,-43.718539352234835,59.21150566363436,-9.694188999791436,-70.25047043719721,2.619548107208007,2.491946604321269,1.8572685710975283,1.2404740442468378,2.180355254696955,1.263523619130062,1.6154271149080164,1.7492709511035984,1.1308200586158739,1.1421653652638222,1.5556783042378233,1.8968627411338916,1.4854121084674714,0.8337525299980914,2.0894027671108093
6,2959,2959,-1.919083560250413,0.59216390973253,-0.3037768659505385,-1.6923861237676143,0.6254171093904406,2.1126667461950417,0.24437308772827077,-0.13272680141326532,1.3391435899068733,1.9872492810531743,-1.2280527483693326,1.514542126505157,-60.39977215403603,12.94649998569311,-22.890863767760624,69.04548251202193,5.696355584962815,1.0901194245029793,0.6046814432635925,1.1880945409825758,1.245818699797533,1.3342329100442645,2.4383157412961234,2.282397295959896,1.1670369056518348,2.0502712763049797,1.449723128517864,2.0169617990732136,0.6036548536973398,2.201622929612796,2.05978254789187,0.7342965716517715
7,2262,2262,-0.3617301919420477,2.2838695569119416,-1.167294889249348,2.0965851980785417,-1.7580214215455185,1.5678641224620327,0.9637686660539959,0.0048231577243936785,0.1868404822436517,1.0746960832549168,2.7657757310172504,-1.5498967587244141,-48.309228433125355,4.5863928644120415,36.24561536457312,61.818867249079105,-3.966325477350539,-0.3404316090470125,3.1600311983108234,2.1076310403110843,1.7626988796127383,2.82725782723518,1.8076823130368913,-0.28036887342735706,1.6143664145041745,2.1661382664169775,1.121158041747746,1.6026224547479169,2.8245474106825093,1.2227539895635786,1.2199275486274357,2.1394348500056424
8,7173,7173,2.3607073803826735,-1.1889823950416862,-0.6423561635236645,-0.5499158135154701,-0.9722391987524983,-1.2679435200327271,1.2398175341325752,-0.34093174341527077,-0.32836690700375426,2.8603217760802546,1.0543561939545618,-1.7854470667607452,42.08260750862089,6.480672698211952,-26.925707355156096,-41.221424822980886,2.8992883609884044,1.3905940416366163,2.035124913511175,2.3137376512353502,1.7565810809813045,1.9489694725332591,1.742808272257767,0.4176272574599338,0.6875049228786505,0.9623562928365098,1.1995002462734696,1.1410471330963101,1.293521839299404,2.250528520338356,0.1803181598143036,-0.025305216892271276
9,5742,5742,0.6526165589375137,-0.24371995697760984,1.8718234160876095,-0.5025112911414036,-0.8907510248843298,1.1801773015166384,2.187752258577255,-2.174130605669515,1.3277424031586362,1.5160176193661905,-1.5186326272482502,1.185882318442525,59.391462921038084,-8.27801924134361,44.68611367052174,52.1158569386608,-46.40133202204548,1.6275941095274653,1.1492242503498076,1.2279794841009841,0.9693927045085553,0.9664567372713125,0.34131866050279225,0.10413085356170404,2.9112341847310534,1.3249518491082433,1.3183441391033164,1.018075528989022,1.692738681369721,2.071811569472734,1.608591648325341,3.0624325464101556
10,855,855,0.9262920092564795,2.702162034315632,-1.6236609540206244,1.4490418339331812,3.1165775956110306,1.5754375448588687,0.801179562696305,0.24874915561942246,1.1007341687631047,1.9893010214456257,-1.2472489844525614,1.3721448627543322,-7.109148469690379,-8.325681954612724,53.57997308150251,-38.620791221350345,-8.55931627593124,3.2057030535132585,0.9520869867225606,1.568633751020824,1.602413291900266,0.3190394457445625,2.1137745427553964,0.7496533593045303,1.0168279487235958,1.5643790578060015,1.7640922238286003,3.0052760847966935,2.7800091203913775,2.354816664904395,0.7266424727267431,2.3960179845821337
11,1796,1796,2.1189245691846224,2.6541301642514608,1.6548329275424403,-0.19493555815224795,-1.2347614460465155,-1.647430442668354,2.0829429794780365,2.813438284515052,-1.0370098573667614,0.423870696798583,1.548858048409057,2.2136802206509296,-34.846165275867975,-68.36408596679473,60.78365463406206,69.68509656522653,-54.60479596821191,1.1324599307655405,0.13414106502074158,1.476527436368018,2.5800091271461483,2.889581717674469,1.210214460257043,2.2948752554931704,0.7535058506598762,2.1700287997883856,1.8047689195306598,1.0776150484246803,2.704170492258609,1.9109350222433743,2.182602589737588,0.740066047121408
12,2144,2144,-1.4501410912582848,0.23254029309786584,-1.8546224545242795,-0.22142442110001537,-0.2964531679400617,-1.0554830929468053,0.6374272768298777,1.020986589046502,0.6639056369068617,1.3513209448015493,-0.7216411993296179,0.37274630479371457,-40.10340533090079,-6.0104595539925265,53.94489402729378,-25.762624298217094,27.82527699531255,1.592799524824838,0.14230166288562696,1.3176334580724929,1.3228762706695802,1.9601739212322644,2.4740425206246206,1.2458108731304476,1.6816611436364166,0.99122950890616,2.0458998782319053,0.520263666858196,2.262698703414287,0.6219942825408956,1.0777002280687067,1.2181558645219654
13,6564,6564,0.6047111929220323,-1.661416838195058,0.19587059861527317,-1.4933979045139305,0.5347273054449897,0.9714341251798859,0.6698043416759283,1.5478383563570233,-1.7810007790789535,1.8649733178598202,-0.9714899260345351,-1.3683957518932313,10.730555004270421,19.164292777706457,-36.03021290472767,12.220652595846731,40.30949263746616,1.784231182487775,1.0634455618763612,0.6625437420213027,1.8464850158607953,0.9555232388242524,1.5107805876584617,0.6751055568386781,1.2588550392075795,1.6160437286244795,0.00516399714410215,1.3217197565322256,0.5025033156581376,0.8232962934559592,0.05268382204192684,0.8208656043909471
14,9,9,-0.12890994504230419,-0.5844871734237769,0.7378930610269749,1.3725347130816854,-0.23594296365610354,1.0796906174769505,0.8590130415461251,1.4108331491332744,-1.8845579075248813,-0.9499077223564869,0.3118689743544671,0.0032392588176074905,31.014162873945054,68.60180586536706,-53.026820858888016,36.84670353525843,-23.18638637682252,2.6271643826562663,1.2950043843659478,1.6420021370163145,1.1590221714376834,2.7229361585931446,1.5402412364007303,0.7018346083127724,2.5314129066256,1.4318270148588503,1.4010682896549438,1.497723222277787,1.164195621955977,0.9481526418538309,3.4329297636112885,0.9460455360800133
15,358,358,1.953657489790872,0.812447671856755,-1.373464672070343,-0.4168007759636214,1.2758807283230524,0.30491645173114623,0.7536587071304705,-1.6113029564784331,-1.3499648585625001,-1.8200612983953381,-1.2923073162123353,-0.9043967259316628,37.541138320874666,74.38128930256202,10.2504782293386,73.42962863536751,3.816600234386041,0.6466060599145272,1.9176424551757467,0.3955411014013033,0.5188213213585557,0.9675258228392525,1.4180600059096413,2.7131963167395883,0.7980813278899013,2.219730128771765,2.199329081921447,1.763318552678459,1.4327050182627037,1.9889310136424088,0.9572502660777888,0.4379643794809438
16,2982,2982,-0.613901856916903,-1.5105406732447733,-1.071065015963792,0.40039903946618904,0.8033219258986513,0.3129597504544656,-0.2526649544401931,-1.1880151783849295,0.6420923683040397,0.03327029669485371,2.622004731348266,-0.0951447725587582,61.609695895293626,-8.77932868888122,29.74566095483268,53.92641025192039,69.51221280782912,1.086488070932865,1.8914279477484923,0.9502784397332296,2.7072370849314433,2.0770887439552483,1.3399673527703528,1.2366653049327991,2.6695226231328038,1.6563686195147769,2.002677179807396,0.5251470373326677,1.716916866707535,1.8495666606710055,1.8620764567555477,0.9690590383963011
17,2408,2408,1.799838978472701,-1.8080007285819213,-1.2339828762668381,-0.13638509813014618,2.108847788125771,0.16907680351649684,0.6607082711118546,-0.7899514431289427,1.71685060338754,0.4587260716696054,1.4339415364998789,1.9690556377753894,-40.28667733752032,67.56453195625863,-15.130365488813865,-47.366921690440925,28.534435090395164,1.454667550454122,-0.5914244177839614,3.6839495425026705,0.9687350508515975,1.0527851002372106,2.0374795341166587,1.8289937991071425,0.5880555342514525,1.419174195263558,1.1789474410628102,2.0818243198113136,1.5499122780333359,0.683270836798114,0.3609783285342099,0.7734352971460741
18,3788,3788,-1.0385692271406233,-0.025177861994784112,1.8855951325121432,2.7712459204592026,1.7216317157435006,1.9455123848299383,1.9308425772929463,1.2909793882594471,-1.7661290724270053,-1.2345725497226883,3.039430007800501,-1.1328334382166414,-1.853879815379596,8.985584458962109,-45.731675983363694,1.5422983413904607,32.654703884762284,0.9315917053293261,3.2646366286319966,3.040841234282566,1.8858071943950208,0.04788522755157615,1.7100986252763335,2.037148073531134,-0.05382052555697403,2.4393946162519624,0.8695858529351128,2.8535508143879698,1.0663924305213672,1.3389415228520025,1.7138730913370661,2.933701975599339
19,4255,4255,-0.5205256177533573,0.5008198113664777,-0.9469713400872488,0.7798287612382027,-0.21397005010918335,0.1308508896127787,-1.7673108855694206,0.5139655410059922,0.8982235462689305,-2.2998246525180175,-2.0340323740662587,0.0077222825576100385,-65.88698535663474,-10.197053391549886,-69.25120568448166,-60.45561519947784,55.736834086402034,1.4060532234932603,0.5055533307075262,2.5189995837949084,0.6263931094361886,1.4030748718368762,1.8004454562854129,2.5817640213587523,1.3051035887373383,0.6192313429115308,1.7705205559918422,2.6825371764706825,3.8285249748617534,1.207560015340795,1.4092141487410215,1.1272452675235116
20,1578,1578,1.6989083791483814,-0.14790466592962193,1.36917301748045,-2.11643438990165,2.125005816285901,3.0860936634287968,0.36678689300875683,-0.6397660945034713,-0.9046167579634834,-1.284916807203397,-0.6569650996987038,1.6877369528181017,62.902801871618344,6.845096364049584,3.4583139157491334,32.833318151629136,-69.95787332298733,1.3796996584956087,2.039960423003353,2.206585303431606,1.1562624545916595,1.2029958311235451,2.114583022194825,1.2992355317573496,2.0754558323553414,0.5650309958338247,2.3926006764513397,3.2765713285123037,0.44565192386887387,0.09125320884308774,0.41502690820371474,2.083667011117472
21,592,592,-1.2823987402380477,0.0133762889805083,1.728026642022423,-1.1481019077247998,-1.344265189553974,-1.5982541035026836,0.9091473857745194,-0.7782463624151668,1.7330521911092078,-1.0315479269899583,-0.0317613525522652,-2.0154314968521727,-26.209893124449007,69.53111438862929,-4.914554117205864,60.67554248490189,32.466644094069636,0.9601764724542008,0.2591280704250482,3.5991664126670333,2.222283866295705,1.6332596219656959,2.022105552626927,2.3097777259863106,2.410713535066124,0.7176105229416289,1.516059390374788,2.3626349773626165,0.47277019245654706,1.1339444468893725,1.292636162420814,0.9421349438286757
22,363,363,1.709535245187597,-1.4879909578720385,0.5606140950977571,0.2989271649624592,1.0229153779834452,-1.8058060894166637,-0.9685469484476252,1.2938027229956366,3.2744102652951064,-0.2962475851992181,-1.350692735544753,0.6287616241062008,55.64002190960018,-43.28756817021787,-33.56966242324011,48.6152502614814,36.37711007695088,2.466581326800878,1.7356692848158208,2.2677289193971353,2.2728078179599396,0.9127747082023304,-0.2293088503177133,1.4264957687845816,0.40106694397022696,1.583092625175967,1.4266117009441042,2.010356061662823,2.169223473081284,1.3772287825542984,1.8822077600302818,1.9277473419649949
23,4013,4013,0.0910907083079735,2.2843148066370595,-1.2864102289113903,2.635927116467858,-1.5557955360836444,1.9421719057076554,-1.6094213455727535,-1.8606902365958682,0.4266986443440033,-0.3883389921056764,-2.0528103199942516,0.8489666892311791,-68.63111589086472,57.807806979524884,57.15490185378258,9.869253622003384,-39.8389461579668,2.3855882038931795,1.9464532295579962,0.9325491677943291,-0.010512434575576768,1.9446738662596268,0.6284722384940191,1.480046175167864,0.7052295747008492,0.8283826760298132,1.6930382979995124,3.481638033894081,2.840572935627346,0.34325330393574327,1.0977065374720532,2.0572042396920316
24,4060,4060,-1.7993602368807324,1.4503415622394993,-2.294730421992879,-2.44679551184241,-0.6050935200804719,2.0113491863730815,0.832449181210138,-0.6810820895357672,0.8605793487645029,-1.336623825690988,1.3562657989488058,1.1117630566201369,66.27172592579167,-47.39812060166647,53.209641973368385,-68.09433349912831,-72.15671906694405,1.420535092703999,2.009650840166855,2.4334699312733,0.12992707150301602,2.6050754506752747,1.84239989986983,2.080501915090422,1.466795089643417,1.4200538696194012,1.6767089747722363,1.8112794639984109,2.328094195963358,3.334053361105394,1.5606995384899296,2.646503741360104
25,220,220,2.490206795728524,-0.7620058671688149,-1.7146954323550472,-1.6526635239343734,0.8746233406824542,0.7815242513720073,1.8616876840457075,1.8399259532586307,1.5808816888813415,0.01828424488890945,-1.200952670369876,-2.6158982215794446,-73.3756824657377,38.75571804269468,10.852596942742943,-54.584858539723314,42.87792962436839,2.023891863264299,2.2841696975542103,2.111117831321827,1.606388776685101,1.3601201800670177,2.195847447616914,0.9057620079647533,1.9544819329436967,0.8563017528221897,0.8753887392562762,1.040446429328898,1.64050545562865,1.7176435412602475,1.8568754440316821,2.402789176012529
26,1071,1071,-1.3010219563074992,2.655603147453549,-1.1840612411112943,-1.517788622047504,2.660970708342904,-1.5601093341161492,1.7884558485833641,-1.06080095866787,-1.6013442023652922,0.08799805491106277,0.6261334143791115,0.7851738430023255,-38.64626212434858,18.59456626069817,58.735024656778386,-40.93761743326037,65.3791671287439,2.8853017200659545,1.549338424542267,3.146302020567372,1.6873747602843672,0.44953391547541033,1.0819344056675428,1.655418214801585,1.954596968513027,0.6896869523380043,0.7273621767623499,3.142449346829464,2.449994103560772,-0.04967365685825853,1.9566339833896707,1.1595318171327125
27,5118,5118,0.3210723900494765,2.6069617626174897,0.6892886470343769,1.3805522542389093,1.4520037150433753,-0.17431455405144908,-0.21816397969004328,1.0278998907171575,-0.1476648668194147,-1.5991912835477418,-0.4782558130579273,1.4392218369959788,-16.950111208024534,34.6825917494742,35.950525571429395,22.86253420285548,45.85018124176428,0.5065075667442962,2.6359101186195923,1.394729392122454,-0.035750007921953875,1.871704235865738,2.958261227166446,2.7961834528216123,0.7456693378552245,1.0336018948991548,1.4945132505194174,0.7853494833406399,2.4619210289489524,1.443736168744067,1.3546572261566274,2.0074974273292985
28,5816,5816,0.5209479829352515,-0.5532202410643199,2.0939124302226118,2.08404358213951,-1.455191478375379,-1.743143647246943,2.6116779485716957,1.1677863798369068,0.6515906109856464,1.6443829049569878,-1.7312201106351177,0.8020826119086695,-74.3023712106669,-64.87918740027314,42.8929206847575,58.21029622946666,66.60433139630881,0.27779809620147405,0.5910713885675887,0.7954841198446868,1.0802372646020961,1.9231828628839636,0.7545501640317143,2.1518375950432755,2.8285431932283993,2.565689265519422,0.9405088783988033,2.860565220810979,0.5859858687319746,0.5526399741987823,2.7140254196497375,-0.42640430415151537
29,2358,2358,2.5864056124596644,0.4178588162375671,1.148146692355922,-0.7781691527968593,1.450322665518311,-0.642668335344856,-0.20816258446653246,1.8969801207579493,-1.7489864818158094,0.5626378262115981,1.5085106864175564,-1.3619203650032985,40.80050471247004,41.98352132883353,34.250997529289535,15.561231583132045,-14.26369655900247,1.3160486068262036,1.7533801073515176,0.9570314468779453,0.7934059414986814,2.5165302185734144,1.6559387633787956,1.2900039816603213,0.5935810376035536,0.9132766708306911,2.634139737840447,0.6921213474391326,2.3623868133371073,1.6020813870377104,2.0957395639924403,1.4639019401939888
30,5869,5869,1.630951125973967,-2.17457286025604,0.3843789481163325,-0.7179294228274837,1.3818100096544188,0.8136160207773742,1.4332491910183336,-0.15783771219361292,-0.9394173105575205,0.20202173579761992,-1.1480349334332285,1.7456751571082456,0.2831708376279779,70.60907522102033,-64.40232873055577,51.61121376451815,-13.143361481835354,1.1795046320260805,1.9211882928262123,1.701776673384571,0.8654659794017971,2.104500266367593,1.8177334403138745,2.1645465828790122,0.16673793617734045,0.512618907802021,2.5991162940042862,1.7317616407869885,0.17278178172264047,3.144090980262984,0.7664960541831334,0.6684859305842091
31,8187,8187,-1.6674255837906187,1.3199074440392242,1.3887612727923393,1.3177490281103785,1.4622829592232254,-0.034843109426881846,-0.17464228741583548,-0.4822934713257149,-0.545971062423676,-1.0053995302919043,-1.5893534390520767,-0.021472949486230755,-20.202358366759363,50.405996314068716,-45.72233865279172,-54.624592995202526,-55.042523492601774,2.512942504417724,1.7652473922815561,2.4734206885181504,2.3967068936247116,0.7544147257588667,1.7305401548231973,1.2606805934702798,0.9378887337798939,-0.11961100182625117,0.886948997356499,1.3575358866801583,1.3205814295517841,1.690415526515317,3.5311614962946725,2.355938107292269
32,5340,5340,0.17428247041699851,1.6634126275448198,1.5128769075427924,3.2725697790196273,-2.669904324362427,-0.9916901720553628,-0.663437255275218,2.58474832280499,-1.0952986373037137,1.5245809895123668,0.6756641840452964,2.4776653134208457,-46.06986098421903,-68.29414069339897,-10.590753425433094,-19.07810605559407,30.54821820315817,3.0074902989509074,0.41657534344501485,1.11447934091558,1.7958354957798877,2.370085043944031,1.3233249539080292,1.6720231970995787,1.8708342458652247,2.1078063261854827,1.6432247709726941,0.2270514817791554,1.2284534599838364,1.976001465206143,1.4779667429490109,2.0238055296957844
33,7621,7621,1.6311668735217602,0.4447347801754591,-0.02240152764749831,-1.2775668936145663,0.9025557158594767,-2.739143196378043,-2.649471569422979,2.7481226160987298,1.8752944501191402,1.7754198773404406,2.534472139058857,0.32548442569302694,32.69161372700262,66.64158398490433,-18.439938303332145,8.097953778458974,-60.96614673536099,2.689632047031877,1.3412347245644036,1.4472480973706112,1.6376281380207276,2.1537190377335778,-0.30996217974897133,1.7205313282874368,2.157739218256388,0.9906077576606473,3.6165197474773216,2.2036556601340562,1.469028861952899,1.1105483497009945,3.3609190588442583,1.496048602095235
34,2719,2719,0.1900540657369929,1.9615868479445446,0.07395054789421895,0.795872264953879,0.7684911289646865,0.6318712621204565,0.012230674599386204,-1.019072051482738,2.2277688954610313,-1.9284425278464503,1.0166334847030676,2.0443512644403685,-67.24447780322463,46.3583110057089,-12.107373612781627,34.33411485959661,-58.327840176019016,2.195723412007858,2.339171012365751,0.4260671867655282,2.3194362941873727,1.5423118374909803,2.28530519658859,0.5771718691650896,0.23929612709847792,2.6261194419123117,1.4060944798751205,1.134457030985913,2.5609623303168387,2.5207036998533856,0.7260674530307477,1.0855973615226016
35,7662,7662,-1.6498967770477817,0.1604122710544677,0.901497265503284,1.6460241560759603,0.27939699621391717,1.110797986447243,0.7057426104015346,-1.0263524349183983,1.2479728874548819,1.3652811449768194,3.4829472484222963,1.7237410391231127,-20.844384615630183,22.133991431122634,-17.411959220996078,38.845926721564005,-10.159804966573722,1.9543266227903089,3.02516277229259,1.2555734928575701,2.0816595881056545,2.708198809107076,1.4976769011199933,2.0212474751967537,1.872829814028048,1.262463916986512,0.9866653589516712,1.0962220667290277,2.5925929563470804,2.211815172408321,2.1789059880955652,2.533035352770537
36,7079,7079,2.6830744171709195,-0.3326657755057957,-0.7178951702932755,-2.308274130886213,1.3073171408748792,-1.9770270077608028,1.209409598393429,1.7639790092678316,-0.2649801397812851,-1.0620894767901308,-0.6124007609639721,-0.16712765818480824,47.09406019635363,25.47361778911458,-41.657367158964995,-71.44297222395258,33.28501938247011,0.10422674670491072,0.7449893022284255,0.5439056790166563,1.4062831983581763,2.093478355135689,1.2268964840876677,2.3476996149728104,2.3442604712229334,0.9826897410686724,2.0468127742166704,2.0571702564839054,2.61354151772421,1.9731012946264879,1.5018384694513345,1.7896575304979905
37,1570,1570,-1.4611371289769548,2.496886820623886,-1.7696973796707447,0.9997274892003216,-0.48973548424367824,2.3481139453847697,0.42283817546489505,1.7961733562765234,1.155338732670386,2.624284810801353,0.9747227453960762,0.18708755132604793,-12.606187140344435,-71.20434876959413,20.064466448682218,-66.60298905277536,-38.43198477128953,2.4262026993174857,1.891524944634404,0.9674919485996816,0.9173233764318327,1.9198839223656283,0.37117081648106504,0.8984983136416751,1.9374544132506906,2.962854163515951,2.7407728665956164,0.9843158250690167,0.42051573388674013,1.438287273412827,0.7786643855772706,1.779073521523562
38,2931,2931,0.4113181003727118,0.4047454811898894,0.6854035840457706,-2.3220571460617556,0.5558037189177282,-1.2002124027499943,-1.8768347168443733,1.9145122270950872,0.5860049101707963,1.61257154727532,-2.4755955393819877,0.2761618307762907,18.398351048442493,-38.46654742148807,-38.017702474297536,12.361755949426385,-68.06148530293625,1.547909752940391,1.793649966934845,1.847518896584849,1.9037145820264596,2.340322039660611,2.8526356216157325,2.5184994920188415,2.2989209185523904,1.9621414971460043,-0.46217659504469283,2.1970827224806166,1.6784578730359065,0.9892406017880927,2.4721213140571034,0.9391678226814446
39,5474,5474,-0.8622237465682019,2.6190727274748213,1.6816579047934417,-0.24280828417731315,1.6109528487478861,2.0824617359214392,-0.8360604420097819,0.4575891221381818,0.4258623070594483,2.6014659554146826,1.578558703027336,0.09788119143722374,-8.58455898989456,-27.10342824662331,69.85258047837206,43.71229513884095,-12.003443790920063,2.4804462192028818,0.8432899619508689,1.7154849514645298,-0.3418690096203373,1.3171322099362457,0.3061028903475255,1.466137420063212,1.5062870945597644,1.5947067050451846,1.3015580633880235,0.43226332111555443,2.4601910856846922,3.0980538413305743,2.9953536573585247,2.8203995392954475
40,2888,2888,1.5885963743710967,-0.20486943911796826,-1.404749848039426,2.702226367183891,0.8092151579363758,0.48894301448377553,-1.1032879440524397,-2.6153470244174537,-1.6515095658925207,0.8604830048013499,1.9884916294079078,-0.7550904377523953,-33.865735027789455,9.932722493489099,-38.08890069110235,68.63034937021257,-13.066050814279347,2.4125505540646106,1.8794091502191992,1.3444441323516916,3.956635863773476,1.8016072915067083,3.1699304624072786,0.8266765684847934,2.3229821746628554,1.9643548655852223,1.565872422536561,1.7948649732955433,1.561951907812077,1.3123942840669045,-0.05071824078649062,2.402077146029564
41,4808,4808,0.22833976131611805,0.02825936527298968,-1.0635729173177662,0.49210007233176756,1.1304322762728178,-0.9195368743516528,-1.4122586529842454,2.5410547043635034,0.29237354741888966,0.8800221293856113,0.8724077356080853,-0.3356786971799851,-45.42987486820976,-0.6983284020299638,20.96208357863858,-3.5302116968844652,-56.448978684362075,1.4628406483091858,2.5393242920965293,1.4500336856700373,0.6589301405050154,1.948149916814473,1.8723941455435065,2.5135984993024327,1.1131757132437345,3.222366574701394,1.4084354577819742,0.9967810442587959,-0.2973211765090775,1.1248016639332037,1.4409194213827723,1.8010275459830813
42,1232,1232,1.4437586244602914,0.005833962079516364,0.21448569394722303,1.5388327466910077,3.0911666499256194,2.4752098796947166,-1.9830364122801227,-1.0511690207496078,-1.7592473796680288,-1.6926766914879279,1.8445638671701523,-1.3484719957712232,14.437233871241737,-9.007996949153126,-72.45059038729316,16.65915373172172,25.721226142527637,1.124197303860659,1.4776914579190643,2.2707368240206502,1.3478664741577067,2.712289564577192,0.3007351600476576,0.5658052216938343,1.3034525137941642,2.739673826260045,1.6508700062159818,0.7574208593681342,1.765815240661898,2.124601592269612,2.8255162878909923,1.968981943144725
43,1111,1111,1.8784767657512718,0.23282289310553178,0.9413926761754983,0.10154809931638498,1.2737856498773228,2.8130118044738337,3.0180833652546637,-1.1363185287542321,-0.3084642630370982,2.580810853791672,-0.8649520947503968,0.933180153575664,22.325170761806273,-0.16919471539231248,-35.0482581489829,-71.70322201951977,25.58851739772455,0.9814612072742188,2.036725552090429,1.0879908153156546,0.6359452216410519,0.2639130595593933,2.1886880009145053,1.1629459361473649,1.2083093898885933,0.733484104904869,2.3686676885216382,1.2018273310938423,1.9390056034193321,0.24815035079988257,1.9059683611335636,1.6188511504329375
44,6112,6112,-1.4666166712271653,-0.5909358170938459,-1.9705956810261644,-1.1008017272852213,2.927092540904919,1.3574307340689291,-0.8154548704937754,-1.1609782031713614,1.4867184047051079,1.7771071541655745,1.8861368048306462,-1.3061575773471592,-69.02593791456601,68.22086383246707,-37.13750315974476,33.499963111848984,-17.783874272849953,2.26062568251296,1.5978394778488858,1.4834292763790347,0.37520275566624084,0.5501156010818584,0.5560762864372031,0.8894284281928841,1.9952324041943088,1.9485692773973728,1.1701270404561719,0.7657286349871251,2.4232138707582247,0.030763899887013835,2.356163090478464,1.3410918006211734
45,6961,6961,-0.1320686817788832,-0.6966766118609129,1.014537423156212,-0.10010230824443103,-1.364334017686212,-1.4290381077844836,-1.6913293311101265,1.0590893635913647,1.5706362732778008,2.287887524070499,1.6772228143138999,-1.3712980488940951,-2.6417317918924574,-65.96614083752964,31.236861081036434,-18.06971086278414,-61.63006668688287,2.462021189045207,1.5657459868069479,1.9492029331351393,0.5023888322759604,2.2554727585617464,1.244511584288456,1.5388880403942786,3.839807833891874,0.9244544612392303,1.0350637083373424,1.037573922301844,2.9632392504821192,2.1419352908751215,0.900237373231044,0.9252462325261599
46,6856,6856,-0.4186901520552705,-0.7109652991890529,2.2427847567203685,-1.538375402723791,-0.4529676950644291,0.8530150447519935,-0.3491581593803471,-2.5682060482531535,0.5100160809557917,2.617906243839942,2.348439248839006,3.0768106202554324,-39.0972906791246,-46.83564890214747,-38.5343694150351,32.162552618616516,-60.65608826803642,2.0417378940676514,1.5940293397320153,2.3656459253095763,3.112821756418637,1.3473708145729277,3.0230202811753673,2.0617201991605993,0.8566343805683885,1.183384346193495,1.8969522838327995,1.367461050358457,3.1242099212817958,1.4936395019297481,0.8305224266570438,0.7604702350480858
47,4001,4001,-0.4557123365417166,1.7120773458390692,-2.2522525210380824,-0.2588905724106515,2.5421881723168855,-0.8419808204287107,-2.2565099232016,-1.9807134552474115,-0.45417365736836846,1.2647159842455051,1.0481942991994835,-1.8170956180134121,-14.630847348770331,40.47317221026465,7.4659120499321165,-48.307953028850136,62.31098410509976,2.0102756719770443,0.32696629673407973,0.2756752984262518,2.0809561327933705,0.35218732462812236,3.8019441939938585,2.1184394906953794,1.3299099313718388,1.200202586339397,0.856167421148008,2.4707877029330607,1.0754400340239882,2.45433322390211,2.167266558949014,2.704742898669429
48,7813,7813,0.2994460926038749,-1.3665717434404052,-0.28088793209644913,-2.1615137623665652,-1.634127010721387,0.13501258231446323,0.9006977464689173,1.045600686828929,-0.6576220306588612,2.7104508854016065,-0.6715841249463377,1.3393762893736836,0.7654736373582238,-12.343449006157819,-61.965904539468994,38.11368620445245,75.29278279305868,0.3770843518909069,1.3839973531847904,2.497786026566539,1.176876941968104,1.5107042390478695,1.9603827162788512,1.9652311747851148,2.435656432604035,0.8962806787109345,0.36126083446575535,2.4784337500304376,2.874352219184097,0.6696609552787542,1.0173124212506375,2.1733139946779345
49,4895,4895,2.6494375281287548,-0.3790082943089328,1.132117965634853,2.7859600171606687,1.705559555323596,1.4015233993737113,-1.5278571375316723,-2.1850686410514584,1.2726186652439178,-2.108127126578713,1.361948285016326,-1.1203580310025387,-13.484736297234392,-70.1070264129374,13.829861525068841,13.83017692824881,56.18569583706109,0.5128628836889608,0.5444963382995189,1.6045426408517383,0.5713124346411367,2.5622084506172156,2.472279935220011,1.8640665513666164,0.6935236655036194,1.1484441104733365,2.1849216639741544,0.3757665998711134,1.2482893385403373,1.1471918019310015,2.690736282846513,1.0663659526646145
50,2266,2266,1.2935664642935167,-0.13930483141521144,0.7723453339727324,2.1517374096757327,0.6501473678857572,3.0850656912931083,0.30667977866413465,-0.32013112120593207,-1.9219488958506934,-1.2128813576682047,2.9238178977306646,1.3666279909899053,-49.33714490464549,-6.87249885895828,24.54585177563421,-6.5241011048151485,30.34443446209209,2.4746079236336684,2.0371965061928026,0.09386655277209288,1.599805940269908,1.2392828022846256,1.8779029675867027,2.3468253548031948,1.1950004331091415,1.9745413506501424,1.2659181192953608,1.9117861783352086,2.154573085348337,1.2429056734523534,2.057912405895986,0.611680816112536
51,6694,6694,2.438126132265328,-0.3918559843355459,0.043591493299491524,1.7226794611555005,-0.21365013448020131,-0.6571040332143426,0.1717009654229118,-1.1241650901043851,-0.4299788707448885,-0.06541089695315033,-0.43620889111765737,-1.1728220456764376,15.685123395077715,48.74425551610448,61.22638591507313,-8.650955311144,40.65136790228341,1.5573748260286249,1.7561434112678924,3.353603877027591,2.1775216873508825,0.6997197272863388,2.103811368409544,2.0966323245784446,2.6864191054400735,1.8113620078775572,2.7711418023054666,1.5683720025236134,0.20875305637748898,1.674688953492333,1.0959189986498254,1.7462129917738487
52,1076,1076,2.1541651126194603,-0.09823315605862229,-2.233049995776847,0.45451633894556354,2.0373591644688824,0.09171725094649807,1.2092282354627484,-1.5523334100047839,-0.2636043445058013,-1.5794705542850231,-1.704104512946547,-1.8943606136787965,-15.522118979819755,-32.65606467396056,-59.335974799428506,50.35455067777466,37.508633434383896,3.011109556590408,0.5089869040872814,2.9643228112022784,0.6891939865420602,2.0876363507825055,0.606832614524571,1.358342036838887,3.3040041995966662,1.5332357895122186,2.7381680341617356,2.364341187072041,2.5937098826006446,2.686482752214699,0.24625607609040823,2.476943468075279
53,4339,4339,-0.11297922705014024,0.938218615525866,-0.8620147646273131,-1.6412843287871453,-0.6266066741538537,0.5794788350092173,0.6982461562359963,2.5700915703501255,3.10059678059077,1.7359659204362372,-0.8827041591477299,2.113544690837605,-31.558329021217748,59.59377047125756,62.61319691137517,6.481600400329241,61.40347649673374,0.0811589261440091,0.7570085270033207,2.7463655877294624,2.6385691917699168,2.284139203262995,1.3336216120768618,1.3632242069795113,2.022917286366561,0.6898707974905126,2.2972292552584004,1.3061162987188064,0.7967846871186652,1.7280221377470473,1.0694969342200304,1.564643290063397
54,2006,2006,-1.2649599823238695,2.2651185308753243,0.41960594458460676,1.062778886739231,0.948689245720444,0.9606908022297069,-0.5345430715734063,2.842050339068403,1.21754929521215,1.2918932625163113,-1.1002604346659537,-0.03172090344590517,52.04334010129312,-58.82795749327999,69.40943940876369,73.41368590884615,56.42578416476276,1.8866631807981091,0.6667139380854374,1.0264267530436881,1.35304682889393,0.9459787874059529,0.5375418810096178,2.8186881536327255,0.5144967465433857,2.454706190051578,1.0676059124809167,2.109349385552117,0.5353045966479784,1.9002203887998066,0.3245444993705594,1.4828112348967613
55,5284,5284,-2.5075941820812004,0.2794422207980336,1.1234327411186515,-0.3823628370996113,-1.5029793045370325,0.9907629895331707,0.47466891105036135,2.4915910387208218,0.7578724441480215,0.34501936233383435,-1.8832522997259393,-1.2270815696735973,-20.944196658778562,-54.092810097854446,-57.61045168713698,72.85348446315517,-61.07774531709464,2.822958469810021,2.0229561959542997,1.0067464409098845,2.2362604063513,0.7072775178048688,0.643600088515529,2.628705031147214,1.0450891506730289,2.8156465859596027,1.9538574464770986,2.2105886467768103,1.1340489949525896,2.055048826642866,0.863002171503114,1.921976327826438
56,4587,4587,-0.6418593632238804,0.8671388809106138,-0.22868552381653173,-1.6481427064707992,1.5989876274309585,0.5526156146858356,-1.5729981945329734,1.6436192921393558,2.2966351076197182,2.2464818607044164,-1.2864869229249294,0.3334189297929803,55.63028899020922,66.39354971980967,40.74965036449495,23.29676259851709,31.143345197358915,1.7840980165910738,1.9070369360505899,0.8128329110979499,2.000353001756565,1.209934522880653,1.9426812328206753,0.9984068355967328,0.4350675659126857,1.7718862963689674,1.7587273535217738,1.9003677351846626,2.756430850410374,0.7973044860088401,1.2603750317883824,1.6717981718993564
57,4743,4743,2.250558386124444,0.6362840642001815,0.8683086475965119,1.954320301729448,-2.106768093649277,-2.0540209525467947,0.26714074953576494,0.5516718090522625,-0.6388850158231758,1.2596133141623387,0.3443620646018011,-1.0438171209902012,-31.014579440849523,-20.48154298532162,27.11794640993999,32.28606607160582,4.530409130102895,2.439331322846037,2.077777016619738,1.6729126924412248,1.8086236997179859,2.232141901963565,2.127401249814378,0.9969094430350056,0.7342500610837184,1.5704848448673112,2.157208189032705,1.182773774817945,1.6462627811007589,0.23269404014463538,1.7169172337300522,2.895069670701148
58,1673,1673,0.009518902031921295,-0.9095910770983445,-2.1277953980254782,0.496731708871071,-0.23697573235283365,-1.6909344385228056,2.5856524214088186,1.7643304310446009,-0.09823995384414666,-0.22675649899477748,-1.0510612829200947,-0.13948260124507605,41.21249466597721,14.642720207733074,-34.653003084173754,74.44298645125927,75.31964715933842,0.39397240620470164,3.0732663590864098,1.21891923088134,2.098995942066577,2.1790082079915853,2.5673208688251203,2.395305757714894,2.4268066390315974,2.449098434198615,2.0633249709968275,0.41213626461606256,2.483646105595589,0.27418771186239244,0.14354903446651918,1.9337892427365466
59,3396,3396,-0.5591151840183048,-1.1281888833883955,0.22527123113189895,-1.4746365417319574,1.715845859679724,-1.8648671174009146,-1.921301961589784,-0.5813363210547605,1.925265314608411,-0.94323018710102,0.18538097772690476,-1.981114894131879,45.183923042673634,13.008214414617004,-10.583552553879374,-68.08849707404448,3.714291264888266,3.106768035256515,0.23394865538905563,1.306644934069267,2.6475886678858975,3.0886129028574487,2.7607993179134347,2.120025732431467,-0.16106557540061767,2.46428400312568,1.6058913561010244,1.4093057557292443,1.0348533645188613,1.7334464069132198,1.814595117128745,1.7061728186257232
60,3679,3679,2.1801361929700804,0.6694856019635013,1.17663943203012,1.9306433134154715,-0.49514672833467077,2.6169427373755085,-0.853206645268884,0.22361988254088638,0.2632261729384344,-0.784481995682397,-0.05206055503186313,2.2756757492471906,-22.92300184449265,-55.00306656534207,57.48957589226376,-12.18762015320291,25.133631209209916,0.9054793153177332,2.4600649034358475,2.19562169382735,0.5390618478878089,1.7584422490344591,0.5273910357650149,1.0451203116673389,1.1716215164363395,0.8139626015788126,1.1468396097401776,1.9108952083661435,2.356699150823202,1.4665985756236555,0.9680215804323979,1.2099436216394488
61,4569,4569,-0.985327359412665,1.3166766720597531,0.9710105794119634,1.8914362781661418,0.7282636733652335,1.1836893019260883,-0.9866307557585636,0.0339972704485349,-0.543070498155002,3.097772916368739,-0.19783676183486676,-2.0870177277236617,4.920063185261673,59.76697183085908,61.59007885555245,65.26258038236084,41.339476680894,1.9679668396338506,1.5621622138318654,2.020383162101225,1.709615100940085,1.8141475692830227,2.5720517570720354,1.365454609137185,2.694935497129397,1.7970380099274854,1.277290924901922,1.7620798234011608,1.4274866932438697,1.244665244463587,1.8476776223812115,1.8958491711544625
62,673,673,-0.5749297386038517,1.2088907919257972,1.0863124331920613,-1.5754340719213669,-2.0727246593329745,3.0590022049995342,-1.648457750732094,-2.274417792706066,1.4757155762765712,2.457926412120233,-0.6180789309468475,-0.7955945693714006,-2.213283427925961,-64.95958616796497,7.411706618827763,-65.80732476537179,2.8234058205221135,1.3093326701986496,2.311648721758501,-0.2134276875730713,1.3059274487915111,2.018406592678291,1.9344738618807746,1.7805464991977407,1.308177244158156,0.795580950605482,-0.05313972799676292,2.819838871597029,3.591672931351379,2.081476939082797,1.8863548305654925,3.639694533812092
63,109,109,-1.5645619536328996,-0.5194015152503666,-1.124867362960277,-0.43387588169817093,-2.497932301948017,1.2154645009622984,-0.2758299348311781,0.25395985770470547,-2.6403444723908662,-1.9181781519996413,2.2576113866767216,1.6289658653452896,15.520346679397797,74.89033851298507,71.1269979625557,44.759131289289016,-35.87029132600607,1.1178712200972336,1.8571276909345977,2.6316982875539368,1.4409342117630468,2.2351671788143816,0.7633084371257647,0.9417272957502589,2.3523934913260005,0.07625880924068856,1.6477346033324323,1.0162777407390857,0.43726152993779754,1.5411269312205538,2.5300955125634332,1.3049961344700376
64,5630,5630,-0.622618074400267,0.9281293670337032,2.247201339733604,0.7923296095583827,0.05429774618883837,-1.5072110731648816,0.15850247305942597,0.4345419056119747,2.5401961595415132,2.311089514793794,-2.0367101496155056,-2.425859756797821,36.07875797740344,14.498838985176462,67.54008737029325,-26.33580284447671,70.87421407261367,2.8225792605968714,0.4285087655392364,2.6407886967023644,1.7230047516007017,1.0108762884020257,2.098560146332121,2.598758692974294,2.2187009354572216,1.3055233690497055,1.2504952398523583,-0.21067693387194147,2.6927809092128583,1.5430961081315309,0.9793128467627505,2.989403893072234
65,5703,5703,2.1998076978354653,1.8108932737353092,0.7526824655559988,-0.08851105804962298,-0.9655483645464547,0.785914972950732,2.786313255774016,-0.11666133103032547,1.7987690439162658,-1.6974910927490063,-0.7273767757115274,-3.2030729918552625,5.489831726523609,64.44712737973066,52.55174770802673,-21.75458752369477,-28.933161432689268,1.1960600357806621,2.132637800480171,1.5996817476272451,3.0084475177611356,1.629022458904578,1.4113536630985348,1.0092694658167451,1.1880961657605131,0.867432577710393,2.1379976271597623,1.8544085889995228,0.9807584075301811,1.9481610721329208,1.7560164564265697,1.2985033565631003
66,4200,4200,-0.3815503964640599,1.0244176793751487,1.9262081611487494,-0.6716644916920383,-1.6889330006755965,1.3873855417579108,2.501866466760982,-1.5125562952169687,1.613130545300927,-0.17699170599426256,-0.19558700841727278,-0.9537661026931412,-49.970505073017144,-66.23772788415215,-39.094525042303665,-30.53694430212371,9.918037532299834,0.4966392715888216,2.8743859435418377,2.512738407987309,0.6623584584470923,0.4895992745237561,0.9248000853482949,2.2290078208067716,1.8838063300950996,2.6630769416098103,1.451711613270591,1.463256858591852,0.522219582654933,1.224974529955731,3.1967417760757786,0.9541170804268331
67,4997,4997,1.4348633767939403,-1.893370204897962,-0.10882682880183991,2.167514758109131,-0.4744554399907406,-1.6560027254362615,-1.269983474546875,2.4155860912787923,-0.9817099654178012,1.073906827128944,-1.840402443017425,1.5287517338289747,-4.1719035454723485,18.420405291498387,-4.044740129452565,-39.93385838452591,59.13968488634394,1.8362531672239757,-0.0674686720770214,1.1749856671818457,1.2363418032623568,3.1766365620168617,2.4640595741416917,0.33020302299064364,1.2029598957520007,0.9994667233774431,0.34538174057033727,2.455221256258486,1.7809778251465394,1.440055113297132,1.5968697235097378,0.28549351370895665
68,5713,5713,1.527944989769173,2.0511066101194095,3.1869191492532174,-1.0093553981151535,1.208486729190484,-0.4622591762882968,-2.673178592640019,-1.6528504730483418,-0.4476794298815199,-0.8656432016853871,0.047701098794491886,3.4136434474931248,39.36906213941622,26.96423253999768,-27.70771579909047,-35.753871268644474,5.027390530471854,2.3794894051522197,1.378824629365818,2.891624099283238,1.274715229391342,1.622688482867003,2.4966081377629226,1.463169906547301,1.6680188897044075,1.1098253713516661,2.002201861360344,1.7461740998298656,1.1238875379282365,1.9367428326748575,1.261456842863344,2.4177761064136156
69,5207,5207,0.23373250836533777,-0.054451315976300985,-0.7670022714975061,2.427310073772901,1.0765544895527095,-0.6446340945677921,1.4339696601200402,-1.369710158554899,1.3829845560315377,0.23347713465898656,1.401740683157695,1.2747865036621375,23.519110671253785,43.91767286798188,-35.0967781542921,45.19366783927409,-37.47603213818614,0.5617947938649048,1.9806701392959656,0.9472661749617068,2.2474317570706166,0.8352744517655186,0.8151633449121121,1.4039226801873053,1.7283874251537124,1.8703035160941694,0.7680151420972067,1.4108018326824867,1.3973353054799582,2.604116576441078,1.8681822401092019,1.4794548892405603
70,7854,7854,0.8268005177208739,2.273889106995338,-1.9278164412208991,-0.053864153992482344,1.5121924742942017,0.12284098613070298,-1.0616687934419073,0.5045509554713654,-1.7576946744946629,2.697656494608904,2.243376716524785,2.405729132706159,-7.680244129484878,54.34427080287585,47.255155752224006,-11.458754948269755,23.865405537110657,1.6936947130787168,0.14387267199861165,2.282101884359,1.5261469077514511,1.8070988380444033,0.14692330611389715,0.24125641415310417,1.8283602346418215,1.2483957153964211,2.0823539706715337,2.511232688908227,2.5693844509148835,1.578460157342099,2.2335773376272012,1.985738946902448
71,1406,1406,1.9451196563294895,0.00275750459363977,-1.2983123423467533,-0.8865691555022669,1.7329393492431704,1.1059478325552123,-2.001522342512681,2.089729055889217,1.667384131454639,2.224641976588765,-1.4986834295775167,2.0696866633770963,-66.8626860021192,46.504741260842216,-72.02465528937837,72.37319232883503,15.603369966567316,2.2478954634543107,2.0440783200952546,1.5792565600388522,0.23788414912049083,1.0538513465761479,1.639543727032658,1.7465457652883525,0.6830226314242669,2.8284723925837287,1.157126796235713,0.204421673296376,2.193265864556671,2.175726627748896,1.7237023634965842,0.6655441460232192
72,3073,3073,0.5002019210349782,-0.15463637022760723,1.6125645912723057,-1.1690824861963436,-1.8905355213487698,-0.9405859250494748,0.2004010205492569,-0.3022182604248232,1.2672227226487722,-2.1230875558800575,1.8567212328911862,2.2299017084337103,-69.78352099489877,-50.91056066636634,56.63782020672797,68.98562821448432,36.075568949987556,1.9469617622160433,0.6930253819762267,2.2308232309122977,1.652209868482236,1.7341169533997576,0.3796394901980174,2.7557020372814858,0.9957997753493947,1.8897403970165423,-0.10764478615801854,2.246633441912805,3.2222258734532536,1.606158435263858,2.75539834682025,0.8626039988322379
73,3117,3117,-0.6055974613080948,-0.02353610713092491,0.4254483323490823,-1.5747121322801458,2.0222347825379834,0.05353893126636794,-1.988966367967921,0.9537153078952247,1.8841418798819443,-1.1854488560614072,0.794953329176599,-0.2156133161971733,9.313452245435036,-30.909587270516415,-41.937417373305166,-7.159018498021666,-48.86642194565573,-0.3486785793418618,1.055300261320243,1.3345747552202063,0.6449140067664991,1.0030308312362086,2.505874114124722,0.23221467935044426,1.9944504248647665,1.4801638250922782,3.0072830538030786,2.5304756116361498,1.6472151148936263,1.0640401911573016,2.1525588627769823,1.9731426460208992
74,3103,3103,0.1585749271477298,1.233849360332323,-1.157566821694153,-1.650173121041836,-0.04207590579663001,2.29629298072362,0.24523298416903028,-1.4281480579297685,0.7892341376658454,2.5743877573616887,-1.4080739594071792,0.33531108231018086,29.712509349335463,-6.326122020136686,16.2795599103972,16.086981305542235,41.72602734845143,2.6118135376141765,0.6135450776971512,1.4754624431518237,1.6394939357317928,1.3749573045671575,1.9552820055304942,1.1883456319249788,1.546523036022457,1.5408107787062577,2.9701191874580775,2.294548708960952,1.6493486095344432,1.6986877703392302,2.206516090522749,1.7505058191911118
75,6794,6794,1.7857561284929406,-2.0434286034279143,0.7484732311586209,1.7233550948545615,-0.55151745673555,0.9757854357166886,-0.8163513228414666,0.0959135679568199,0.6970872910530688,-0.6023165179555563,1.3421483923018522,-1.5380288397246833,72.13596188524517,-68.38574408011351,39.73954433079764,-32.71468254426034,10.121938168947112,0.3841336385468639,2.29605170518351,0.8855004952103438,-0.24035112359889788,3.164122767675641,2.0636936041245795,2.4310198675519588,1.9732916886271306,1.3772322444240601,1.3976972416822455,3.6923482978072233,0.28394950949671743,0.002017630494371203,2.4823649722529195,1.6705998913304911
76,3916,3916,0.2477727300105154,0.0162573447432999,-1.103069942197728,0.5648789576360014,1.6819204835885415,-1.2647529750747466,-0.9608560986561556,-1.0371293033530165,-1.7922408268969685,-0.1952528961423552,0.7345575078999396,-0.6263434811882327,-7.612042932497044,-64.29604116495192,-7.958228711775405,0.3708219451444677,-23.538707658487134,2.8496390784541896,1.0894710364528355,0.6732955021348046,2.7206201563795087,3.2576988433972787,1.9952625615841255,1.183894716503488,2.085926451723542,0.753431970834721,1.5042425040353469,1.4216423995545233,1.827776198615878,0.6512129162695237,0.5204136621116189,1.1410205481840663
77,1681,1681,0.6857729729407922,-1.910752204856266,2.4467050043902137,-0.7114585962085722,2.0465616748860267,1.620156326337378,-0.9596645560092254,-1.3987365520641408,2.0195328045055625,1.6963961664148823,-1.7773841741893104,-0.7675060708545036,29.75303267723174,-50.50009586763892,-75.20067996624694,-10.267711901458252,65.25498649539831,2.0491650124063967,1.5636616172920572,2.0432805845311797,0.6226960184192513,1.7161525050092314,0.0087911212483478,1.3257625615313473,0.6584825870633293,0.9677422863397304,1.84904329540353,2.7251934722270863,1.518008550193844,0.6169367637405672,1.0660278545504152,1.2690426197172546
78,6454,6454,-1.008071799318253,-1.8000718300656722,-2.6263481787608454,2.548235000826648,-0.6697871835772828,-0.7608850906332867,-2.442247742969864,-0.034425514591769596,-0.853391757428384,-0.9432139293813084,-2.0476666476294603,-0.19151802969935328,9.530128633543091,37.99411451378817,-62.803482220742964,-21.255569879517026,-59.130001038163364,2.674753451436748,1.2715761174776445,2.527912107961422,0.43482431023371537,1.9928348882564826,0.3379497895965451,2.7320251359887795,0.04100823398446307,1.5001993942327707,2.1582307356956627,0.5805878175689229,2.6204857805563893,2.574869955107891,1.9899480752479168,1.4774138428499595
79,379,379,-0.28241959564456753,-2.0680257514510085,-1.7399160300883998,1.9385745384035609,0.4456107180194109,-1.1228493141877922,-0.3641214233234068,1.5990383171799631,0.9120289137430644,1.3647395223399597,-0.04127727305207778,-0.5524395814793305,-45.05463593706194,-32.32425449299569,-38.90717939346581,-22.25719200841432,-64.54349010763681,1.158044344583215,2.443785069817406,2.9883958457477964,2.0330914327257217,1.65189889346786,1.2477675157905603,2.040174705297845,2.634815406154364,0.6743586230125422,0.9209339694263794,0.5441319753520102,0.7543933227796513,1.4052048750191968,0.2247947171400378,1.8544601280478212
80,1162,1162,-1.5795081636970791,2.3143902321563283,-0.8273070967211967,-0.8235534484885465,-0.5372655862414336,-1.2623344429280359,-2.2082756516246262,-0.6331161803797286,1.979204099706779,0.1527336123647714,1.1869525039741942,0.6921243046825231,-43.587166101850386,41.631505583992286,18.507274743296634,5.621281551845902,-53.001241471409166,2.880303602024883,1.1302347683804652,0.8865963879876202,3.5855141610156487,3.241585823764728,2.288612948990435,2.576539110160626,2.154649039896835,1.3717943881994739,3.2363627305866207,-0.01700258171540603,1.9703527591021197,1.8427976612977466,2.2451569109601364,1.8712235161670638
81,3564,3564,1.253091898110106,1.718370111991117,1.7292162252496082,-0.9113076040823849,0.25473473666091817,0.6699155704272539,1.1206633464488593,1.8430522417999893,2.121148683682935,0.9935832566582203,-0.10329981182566617,-2.3656941585127886,-36.69934818615884,54.655794632260545,63.80786738132852,35.76856587882432,-55.54429689050373,1.0721597590715817,1.0589617605936257,1.0670826046977013,1.2570103382177051,0.38349107582188807,1.242899271042877,1.6978098060481757,0.7424979735312991,1.6760362011488068,1.04509766572585,1.3519735389441552,0.39215538529236443,2.630165987047464,0.9348729976322587,0.08721220243663164
82,6223,6223,1.6146272663861403,0.11651404547075728,-2.3734674236509004,0.7190997687413025,-1.475172714493276,1.9242604114525432,2.3106808829350314,-0.3344196788804791,-1.7394621910859485,1.8128191290013926,1.3581923305013546,0.7169504177812014,35.090561348878026,31.43863947949223,-22.117836980898566,40.80933046421326,13.293831716242616,2.6152255592534557,2.4874254496142445,1.6200234890714498,-0.10614421233614746,1.8236703461151482,2.907074550307191,1.51097527707841,1.8605684090009926,0.18139694502355452,0.8370363148769844,1.7685426837476614,1.8714428114893011,0.8977820605269942,-0.9133657424232992,0.9496589447837676
83,1866,1866,-2.539462921085121,0.5511620248546949,-0.22215907592198314,0.9737653314124026,-1.8837081837985021,-2.3008956517126107,-0.8740009997255426,-1.4434022409154807,-0.3309591750099765,2.950418084150547,0.08413722201636714,0.20923566527625526,-64.02625998131319,-21.774911821118064,63.8332603645475,50.99358990704449,41.42553747651383,0.7828471137407482,1.5338633904303949,2.2486861827508418,1.8438367860651714,1.2528720898800918,0.5881749225856934,2.021287061357179,2.2484614486061405,1.288111025319991,1.3344069108976317,1.0074317029792716,1.6649918597162443,1.7170384801591614,1.931850804878815,2.7145453091762244
84,554,554,-0.39169761327616714,-0.4426051753921405,-0.8821222126976037,0.6736090648214061,-1.5093156574890088,0.09025597527180712,-1.5805246118441034,0.42550402728168263,0.18062279396785796,-1.5855538395650752,1.724328590425547,1.323082073093576,9.517068153478833,-60.83623616022811,-58.25147829668266,22.57763822697353,73.43882645094736,0.9233397956516868,2.4227947938676784,2.2022136155098258,1.3068752145239846,2.2018003602332374,1.548623689064434,0.7142159606453208,0.576018275892753,3.6190318248673594,0.5216894078563099,2.06095184264521,1.9043552141918219,1.7989242471791178,1.2176916856250564,0.3569741722747065
85,7898,7898,-0.27298813699871965,1.3976437680545215,0.13641578655145387,-0.9475512961408439,-1.788675071260467,-2.5293134911423594,-0.42265204185523647,-1.2035720522715656,-0.34886097900140295,2.0870873915464814,-2.414627520869321,-0.7093708627428028,56.855393439832795,73.08407241798807,51.194830701407575,67.0953937951159,32.8575989423924,2.0338927091961434,1.7529606667598894,1.8036941273291172,1.677866800566106,1.4009433361991916,1.770785544944733,0.39345663143573945,0.2554841922627164,-0.18043532173636556,0.4945032954817181,1.1462530053295175,0.32285901148081847,3.4598331838370866,1.4864646533828236,2.496169462848458
86,863,863,1.5334990822725119,-1.8455193149812017,2.068201987186727,-0.232345139238994,-0.7714423811568815,0.16606300434931587,0.06909869466698981,0.15655682081515598,2.4659359310068476,0.5691083723571214,-1.3944179126768845,2.245552583839493,-50.669792259685956,3.84493172043308,16.592163449140138,-17.481298215965865,70.6760088202438,3.0432910193778557,1.1039030754038166,1.7743757265921665,1.544529817443689,1.6328904162680287,1.4707593011949995,0.8007004131121688,2.1210296266439976,2.2241142225347788,1.1947141192467359,1.306463023547593,2.3529686324748047,1.3423126179942555,2.036356201019805,1.345738674501407
87,7651,7651,-1.7535344867689449,-0.42076584943597517,-3.038707208543591,-0.4071102571806531,2.2047509328655686,0.8739846122108215,-1.2269199757415326,-0.439661244854648,0.4551413551346524,0.9503501768707838,0.3957574282841375,0.5449596291549539,-34.02328256603334,53.324927304612174,-64.1277828246733,-34.665501026157784,-35.180116833977564,1.5641719396289084,1.0376473923954088,-0.3054926521026592,2.179519432812486,2.0876721746198093,1.6621697622813718,1.5627199288957498,1.6838870644022341,0.09495940126319147,1.0689758194689927,1.4425151406117078,1.1119957563544502,1.460674377508392,1.4065872030157058,-0.18560239407344903
88,3840,3840,0.4143982005081568,-2.133559562407599,-0.3605337075661905,-1.1360487556388046,-0.9395284602340873,-1.6759717280773312,-0.7978279053358903,3.371516357601829,-0.5399380725960699,1.406180499800862,-1.8452792109202756,-1.83829231156404,49.084256437076604,-55.59970172628202,-71.32861772389123,-64.62373697746052,-42.79844434136382,2.219777094927077,0.2535684931359899,1.7961807038252044,3.06473271707375,2.137955447152823,2.5360782056181557,0.4999648134503438,1.5735651183570172,3.0400112370254435,1.5395329838508627,2.896262495460442,-0.2920059929285034,1.1707603525347863,1.0851887127375002,2.954654843968769
89,6029,6029,-1.9267656220488225,-0.9328517951628599,-0.4918157112122639,-2.025628483160208,0.2526718667208998,-0.4456102696152684,-0.8803418453968519,-1.118760920482428,0.4770555319461519,1.0789647463324366,-0.65747843060763,-0.18044984630218497,-27.798991754164486,20.517583207891285,71.05999243252869,-47.44314911961628,-28.1736302538707,0.06600254582971676,1.1964886039492826,3.2073969902497854,-0.263512097320496,0.5116731029959507,0.7784152833249498,1.3787942242416205,0.3259861492964094,2.069627471131958,0.4881174132913316,1.6673464973916166,1.9600889232469432,1.3217112705130598,1.3119769840418771,1.3493664313967089
90,2180,2180,-1.0847026850114676,0.5161977170598877,3.4011589217091203,1.4353492531249854,0.23965517064658082,0.7348471592002581,-0.12832448187436415,-0.04411052692211431,0.6137842963627762,2.688102504659619,0.7368844351209771,1.1801414276000435,-6.394071443095537,12.48686869087292,-60.81617230142341,25.658911733624162,27.39760539539896,2.4723378909137277,2.994039180959266,0.4859243557276455,1.2579247077965163,1.7690792450842951,2.2070214924319345,0.8005883718271564,0.8751929796927147,1.600300195787661,1.239971366144999,2.023911076968694,1.785451807368041,1.1531440897728693,0.0644266706505271,0.73275753843942
91,608,608,0.41433218224077595,1.9627736079505935,-1.0679288982360642,-0.49324957302796046,1.9273918232462885,2.223289264630395,-0.03555997995910709,-0.3133987290448271,-1.963123745026679,-2.989361378963577,3.1687854766024754,-0.4639443211292874,-22.388421949820927,17.172444385454174,-45.8168311472479,36.14544735769949,-24.20340039067212,1.6745257039772405,0.5898687919381722,2.785393658700205,2.963109905746066,2.1749237813313327,0.3488110629047273,2.243463836362209,1.5889698370591756,1.4086244727483188,1.4290369688760929,0.573745302279088,1.3511990324412964,0.7553238405842102,2.208890903511675,1.6399932118282108
92,7551,7551,1.56293707330153,0.18789429650337278,0.11812553073589964,1.0776005060571847,-1.265394391403147,-0.7108084245493325,-1.2203877217914656,1.0472800581713293,0.5008615659249233,0.11349380298969686,-1.30377246351264,0.4643032990136634,12.261561516469747,-55.267926518083,13.169608149535572,3.85284420889042,16.26511381715218,3.1239255053693116,1.7835230026805142,1.1684403396714678,1.19567195304801,1.692253547385628,3.0023230488389463,1.6073174705366806,1.2602610335948032,1.2552880941313918,1.7932048782209735,2.027564192587739,0.8911653359466085,0.9356184687833503,1.5878383894918937,2.4067978999102
93,5683,5683,1.746306000436241,-0.2622811182110012,-0.924874909324712,0.10522014526694923,-0.5797155103221998,1.5050331564821453,1.9209281790149695,-0.20911544892948117,-0.5100584548513986,0.5081241884140716,-1.3653591508174536,1.901356578659837,-46.35653079048226,70.8839161682537,-60.24219526325315,4.991822023232004,-72.9177444936204,1.8948340756556106,0.8815260538507413,1.2911625442050156,0.675362096095504,0.5816239555032214,1.039943790117942,2.2465780976476872,2.4114009645640673,1.7584129725514275,1.689917380813163,0.4953715309774823,0.6799697650809393,0.8188162233082326,3.025729798404,0.3750894694637318
94,5925,5925,0.46307566717336757,-0.9662606288263071,-0.7884981920843681,-0.9812396528974847,-0.7757785946184335,2.3476591533472155,0.06791509719773137,0.6574145875780197,1.0928818565605427,-1.4268896803974933,0.5939461771305244,-1.9556596902938144,12.066798782659623,-42.02200742158275,-28.39400360864894,-31.117201966258026,-1.3646890122862272,2.2073408018868923,0.5298631351391925,1.0872722365159455,1.8403651350471968,1.6946747701860696,1.6871325692788726,2.2644932563571616,1.9728889146041937,2.6738928998934264,2.233233696766817,0.5766657761162226,2.2921926160656434,2.0261542737589675,1.1046143558086494,1.9437064390159295
95,1345,1345,0.6364712365822991,-0.05873997012546761,1.2682445738280521,1.2066565189608067,1.3794497902030536,0.38731649228521386,-0.8618254097222431,0.19718570193274046,0.8021282333910409,-0.4888717683110587,1.4602200278249262,0.16398238515448,-56.22254558713742,34.084084088511084,-38.87899936895865,25.320326900818177,34.83150886828987,1.8578675330562038,1.627691164828745,2.2300214008303745,1.2522760324429751,1.3875946737592793,0.6969327309341409,2.295042223209431,2.395175862370645,2.2396368558545374,2.6804162732842385,1.3315314241891307,1.6029922826827268,0.5631564785336869,3.0201712012464843,0.4234589560773856
96,4663,4663,2.4618535883897312,2.3769155372788813,0.445887292981163,2.306444894997471,-0.016832560001266345,-2.195529637186747,-0.16398301635330656,0.41390386644281263,0.18982927727635934,-1.9419239096026026,-1.185532803158106,-1.049737813981981,4.459410323627756,-15.23366304351751,-41.84680904433438,24.85150204004322,-17.93885093337696,0.36340212097165603,0.6723416539362828,1.1251794319788804,1.8057669203034652,1.6836054551199597,2.0720956018403136,1.9630055236215225,-0.7824394197660582,2.6910902406273136,1.456830798997076,0.6861909549150471,0.6533141838104584,1.5255522695053474,2.4000450889953426,2.006386682215754
97,3266,3266,-0.1527514593803153,1.2159032619479206,1.0303055958225102,1.8567213100650644,3.190053678519055,-0.6956979309940938,-0.6311642560000097,0.48128032477864446,2.5412264506809428,-0.706047989294976,1.9945985184006583,3.0635637056229705,59.95169811847555,-6.713184868792553,-74.78923957796731,56.971973748978776,-18.800632494314073,0.24171514339750733,2.07481880044561,1.8016443046587147,0.9290836875238657,0.7737879355257821,1.3616436160511571,2.726400709102279,1.1286318363306727,3.4458641946572257,0.4152147178812451,1.967850381053014,0.7479603240418946,2.229538601152814,1.9396177698260444,2.020136255636098
98,4216,4216,-1.301412087403324,0.9147213771438063,-1.1281604640814544,2.2705361966265873,0.9854175040617974,1.0350001230162509,2.6214065117808696,1.055981907111714,0.2675935948666324,-2.3523442142836584,3.0004114084744327,0.5118713808197933,-42.96945096521152,38.43079479374543,53.459399033243066,-45.64589933016292,-59.535007949734194,1.5767843873224199,2.255870164938641,0.29597205687942507,2.5757631364342717,0.6069351965975864,1.2336459951855532,1.9196741206540449,1.6390357555158273,2.526766752861864,1.8628905228268087,2.774963726432492,1.9238479443305012,1.8660376822969325,2.3264579224326076,0.7403494247680908
99,5820,5820,-2.233066445591714,0.016994625351280934,1.407056883888167,0.5731613752470426,0.06482464732301602,-1.4807926702919754,0.15478986840207237,-0.8879160849100592,0.654811469937479,-1.4902949303413666,-1.1210838228854378,-1.381373576950397,61.859991179840335,0.6040244157296067,-19.30817339618985,-45.11290991832201,-58.137535463194126,0.8548530394537576,1.854798521389443,2.6673718028784013,1.3819737052105507,0.46539544873733085,1.9450178023824929,1.055826302022943,0.9115475806876923,1.5486123254838424,2.5974706048154146,0.22418954088063292,0.843720388680948,2.2602375320051507,0.7947831671924279,0.4562136624796343
100,3458,3458,-0.3765408577758862,0.10490294200184544,0.5163321362480469,0.658359894282603,1.2099537902304536,-1.5306504121461746,2.2492403769401017,1.787212409385889,0.9545455172098732,0.18935115373063263,2.189398306878801,-1.103955530112412,-28.383125719398848,28.07632769242231,-31.26148327819433,-3.3160142629789506,56.078510368237986,2.7102375099106357,0.6309989304243973,1.3399305636880496,1.1383803748895658,2.361635211386811,2.294777974940073,2.2800784951422512,-0.3681572277182821,0.14544824188018196,0.5688706042994164,1.80887054049203,1.141229538564985,2.496386125651049,1.116608667074696,0.9849671050933353
101,3136,3136,2.593845180381056,2.441535794422756,0.2695183803753295,1.8595741987203893,1.0643214316472278,-0.7009900035706127,-0.9259443741006741,2.136977192255414,1.8410225143613679,2.1283836486993413,0.2815402542417116,1.528024481916495,-27.506025426664202,11.067124413065132,44.318706450883596,35.40427817670453,-38.627101662863275,1.4119998974554981,2.221528204506933,1.2419801962682508,2.759695963737387,2.7775992829948324,0.7353527666550758,1.7785498854694588,1.4499354321727753,1.7808593097119159,1.7867432640371335,1.5645359221749682,1.4270010882229747,-0.13887610428541552,2.708733071056871,2.146122937232398
102,1807,1807,-0.06754252743846206,2.217199575290901,-1.1396669802696358,-0.952587951111153,-2.211879662364862,1.012813676965587,3.1795122967062888,1.5981861868574563,-0.16273307839763995,2.1747083339794755,0.6649243601476215,-2.170983258627017,57.48400176928514,-25.59900946311222,-38.71854024816765,-53.84932482261258,-62.96956048306204,1.4067392091645115,1.5767516912206807,2.079592936088259,0.7262053228013716,1.5817268284119517,1.7771724445657058,0.9010307648848468,0.6820123164265466,1.8493662600155063,1.4621194764779464,2.408779198412372,1.4550661337858488,2.405939170084872,1.1897545445776978,1.622961482893941
103,7731,7731,1.645768821920159,1.8762181583995372,0.7759390785689185,1.779269912147769,-0.9239829232786831,0.44916881019921756,-0.9849714316453049,-2.4829141184435373,1.8421366092539233,1.400563983657488,2.4216806149361547,1.4660908153410745,-5.200097128373604,-14.179469466374242,-56.94893702546715,-37.76132255653826,15.444907115074336,2.321687936344078,0.9306558964423417,1.7661562418417824,1.0358794414249517,1.0241160338582422,1.9172873089559388,0.6747053744323777,3.1332233913577197,2.479131772302823,0.40708025012159044,2.4038072765739265,1.1368084589970873,0.8299513812980411,-0.019717032962031644,1.5920351343573134
104,1554,1554,1.1635242046230876,-0.8440810715878497,-1.8690372616955462,1.7310488843044842,1.9851762807111444,1.425457782011235,0.8343633414814544,-0.1830728703566719,0.32560898469904803,1.01733416966758,0.5630835588161012,2.4515778655875455,-26.14416220359829,52.903895040440275,-70.60281970376539,59.94383465998396,-40.73148627106752,2.537484054371437,0.7643684741000019,2.3215565062197134,3.6177816366738877,-0.5241274486290074,1.547390396727175,2.542513515579609,2.5530916460440123,0.49203555825601253,1.6701552517879077,1.1379560165215192,1.283752520289409,1.608846333714451,1.2884942927906426,2.6017442795566943
105,4666,4666,-0.7690219113171992,-0.9276235343580016,-0.6057717558170819,-1.3240662175252451,1.9899544603091057,2.0772877969976147,1.609006809729797,0.8537462890742028,0.7895644824775434,1.8789455600615708,1.5672622125818456,1.3111279851448363,-41.61229559359127,68.88158041582575,41.406332909086835,-29.62581498251096,-3.582292976372925,1.480545673536712,2.410081137096447,-0.36598456281315617,1.9204394093481558,1.002687254869324,1.7886321563276018,1.3780120977319117,0.8193064017986998,1.4907444835243937,1.1143420395932357,3.143802452992827,2.3537936522015004,2.186883609804452,2.8891694988580836,0.8154994722459343
106,4707,4707,-2.2415623568439145,1.2091421712699797,-0.42335123048321366,1.864141366359109,1.1040855925420827,2.8567514854489957,1.3338799935816594,0.40918699362265276,0.5738581208079648,-0.904935868554879,2.21631133393104,-1.6016723011253304,66.59817637627786,-5.9586695269097145,41.703325022634644,-59.988761490489686,2.2298708148350306,1.384987639141125,1.2830807420212502,0.272336526073133,0.303839904961335,2.9715935942965626,1.714352687634764,2.6030948580695563,2.3088496267508556,1.5998358286556797,2.096103257595079,0.22316832748085735,0.35003853248734074,1.612208023433547,1.4265943391975457,-0.9992380352227743
107,5589,5589,-1.0059615877106962,1.104957223962455,0.529805990363889,0.6794216309222239,0.24527393046999624,-1.0686350079761695,2.1571563915920704,2.155630253755479,3.2382388859129243,-0.9803998263425022,1.3055973778955736,-1.2045526869572,37.73009763365084,-19.148503785198873,45.65448079814672,-4.650900250136716,-14.623223839909507,0.42754426153588143,3.2187611865804273,0.9549466558624182,0.8740564703239864,0.9903900509237313,2.828887344712002,1.2460524849997088,0.1535155606490013,1.3441035249908129,0.7399215659616124,1.285352467414086,-0.207292690217096,0.7303632710021307,2.422147243436384,2.5297815046607846
108,2604,2604,-1.367565244665754,2.344581105860642,1.4749816151646555,1.446949775635311,-0.7651437133523051,0.6552835186708664,0.8063862751352775,0.18060644293368655,1.5817892703853236,0.4545484412481725,0.17646007914886308,-2.638687214778141,33.92943412745203,-42.02386768953422,46.303978180574795,41.31329607181596,19.072208685528565,3.458848349766058,0.3986209178348229,1.9053231680079448,0.8012222370361979,2.4890748740722803,1.2661101913819004,2.672277144417973,0.8886887738767617,0.9839961941818158,1.4000903261475193,0.8277617250175077,1.0598393145605396,0.9920909254791654,0.44678468523063525,1.2106904942589982
109,5385,5385,0.5157903557663672,1.2324355505040803,2.164880846525628,0.9299594899787422,-0.8851345288958673,-1.1064781149124103,1.4229126056694925,-2.1937582476050785,-0.4999488272318735,-0.1480573124970058,1.140682577248907,1.6822900588885812,33.1181925580895,46.426872433414694,-31.066549798086037,1.2693668329896226,55.934037314679685,0.5720694705347716,2.03763780349988,1.9738611950419718,1.6592531589592299,1.623623551718329,2.5863614459012636,0.7341678062667287,0.41189205363323644,2.4377229509551905,2.574405780801442,1.9890488140317486,1.5890351454624154,1.4230241554556382,2.3033119168555602,2.524019857074594
110,566,566,-1.31791304258005,-0.35160543841832825,-1.2402521696139865,3.7521016623673225,-1.113856303896445,-0.5928303447220301,-1.608221061195555,2.4698295034160314,-1.9017299286401648,-0.5316670225286979,-0.6591916019603619,2.004194202587036,-53.78168610456577,-73.36235835388088,-54.60119494830688,-61.934358270531106,-73.98249654124997,1.4567291320259212,1.4784020782980996,1.1803102946260824,1.8714988996305801,0.9265493059089877,1.1849010092152978,0.22385552603830017,0.28263521748027653,1.710433278769921,2.432230068149802,1.6631361083995153,2.569601434202066,1.3430946198158684,-0.1871053088604543,0.624864904830217
111,241,241,2.0971891366149844,-0.7711826374648058,0.5730213660049722,2.089473851849904,0.2227499058635555,-2.6528330566235434,2.2111127949773826,1.1851084946981134,-1.60750197904446,-1.5673092002371094,1.6753148861404188,-0.28833680574953,-46.000096922524754,48.08369098657484,34.19177824315048,-18.58101406076167,-14.878708544718409,2.0728965634848837,1.6352885389520144,2.26761610240215,0.30368538009794027,3.149039355474944,2.7716866816414107,0.5807459191357038,0.6317886652256501,1.3677951533264432,0.014281087911882984,2.5109991975627213,1.6151940719696385,2.9952331966255006,2.078185907386138,1.430477461268954
112,1196,1196,0.07035969266503578,-0.031118493875677583,-1.2004832695670533,-0.15279287156567734,-1.7696263224492905,1.9233128864658786,1.0419906157585659,-0.2857055524407046,-2.2017350285074846,-1.3953120536707422,0.5248920307432792,0.8132542242530874,-37.8901627031089,-46.00659877213538,60.314291382422525,27.41575583760265,1.757160027365964,1.975511044719336,0.6674710980308605,1.8281795370686673,1.0116876537414994,1.516343366363388,1.1021493513552476,1.1332759829896903,2.3241346950822077,0.24510548743256916,2.17047609346692,2.114004490732516,2.3794310541706554,1.1361916934673753,2.4515048661927126,1.2367705891446017
113,6788,6788,0.14785772524035762,1.9138497806996178,-0.580666221454907,-0.37484947601329843,0.8799418718892941,1.1192992889945996,1.1745877752911305,-1.9380736499339504,-0.9671164739619249,0.8153973758891815,0.3910404806539719,2.518285123136984,63.75207694126196,43.51711631283624,63.32267928684686,62.536744837038746,14.098483367250923,2.7424892792195217,2.549642411378309,1.8864990359389628,2.5214428488033125,1.9050447949113296,0.6737758656650554,0.3398980913963202,2.037226859065899,2.2382010623657074,2.7082742411660288,1.9794171746348574,-0.11436942761269686,1.7441709896809252,1.1178659256977919,0.5936135079178004
114,876,876,-0.9208387937460352,0.9044964277268097,-1.794122717813025,1.3422181926294623,0.7731179241739028,0.013655175108615247,-0.2935122095900974,1.9633681107503065,0.3774995345031916,0.2890323217842755,-0.21904247819225775,1.0848614695916714,41.30589568104654,30.37918106239527,-51.90272217542358,-38.33211046328597,-29.688256524228954,0.5583517252957733,2.422061848682636,0.6911879117333073,-0.14639268714439363,1.4523857398872724,1.1229371050071748,1.4937966163757868,2.4041109901629243,0.4751119557231625,3.9658359294430316,1.563930997032046,2.7352474878088247,2.365704819042735,0.07429745357254702,2.798124899513087
115,5124,5124,-1.7270754121385654,2.2443988563446906,0.5078821810477054,-0.7694563619813941,-1.9294789433885133,2.7617455427591198,1.1811116282209229,3.211167422319892,2.392059772372959,2.2781523104045567,3.0736023039772222,-1.1583109765609803,-25.0798324855091,-69.19145958193941,54.341955126058345,-65.83052021514366,65.05259320167947,1.6567618210349566,1.3296862969986432,2.2915192175614596,1.9378492925037372,1.249546423825102,2.8373950768151097,1.3604520477131503,1.5264490526473307,2.5951832777582906,2.375049482224123,1.279835773325145,1.3737044533360232,1.0839090568724372,2.317703068179754,2.020417134230475
116,2192,2192,2.009165766823899,1.463293509108677,-1.450606634955546,-0.3470352833017969,-0.7534639360736469,0.7972743603162464,2.3980246844843434,1.3418623441949606,-0.7900207987401215,-0.9882245263928371,1.7009013987929227,2.9056410827766666,-54.94453938926505,-72.9687959840455,-55.35901504443803,61.17867888667399,-2.7502946512759263,2.0725630709541565,1.2124356038698205,2.1416687317713308,1.5813586540398359,0.46824517892414963,1.3151161599888803,1.0505327147769055,1.2370627919305743,1.532048184793577,0.20823120945280166,0.4862180963381457,2.7404495374149445,2.2593654074967375,1.309021524694502,1.7767532768232257
117,5041,5041,-0.8274950916720343,-2.1103184227737626,-1.4246832061037538,-0.48569223498987824,0.05038477664703703,-0.8140155345305472,-1.9148388595232622,-0.5733569861266747,-1.1987486940839298,1.0150249343715223,-0.7122059389810034,0.3320643326821595,3.432828879464015,-47.948683522244444,-59.74721566994124,-0.29405632254751934,21.847833422097136,1.2966976744358512,2.526755197259196,1.7993002935393987,2.4334835620771016,1.914871070007945,1.6914842904176883,0.8371456385574172,2.7398127528668788,2.6819673820321097,0.11636018220472272,2.0296251997874792,1.4123415019798085,0.611517463146295,1.2619252958782292,2.126930016242442
118,2599,2599,-0.06035583811566066,1.927023133154056,0.6424102065083482,2.197883423947882,0.1500998912752305,0.3549422970827707,-0.13543001988840964,-0.8118399928988165,1.297526561881149,2.0329108030203042,-1.7809402864600496,2.524889633622303,-46.99342337032535,-50.23092090983976,-49.89595676519953,34.47811277250807,52.995764855302,1.6549231303131005,2.3598895621270604,1.134365561013374,1.8352228107197903,1.8173062645434168,1.8061460301574648,3.456888481486659,0.008480105804194948,1.4295306621092103,1.0288603350424697,1.5402031958170743,1.7283316226550915,-0.8069411962790949,1.7828506333273402,1.7901437448074866
119,3390,3390,0.2508157884326179,2.366374543372875,-1.7723773688134432,-0.7377072234863344,-0.1204780483233957,1.8857481620182175,0.2200141977082294,-2.0388610966462126,1.3975402031187674,-0.5163816974733806,-2.184666459537725,-0.9671773675262344,59.29809556159788,-55.579279834421826,61.129757447766885,16.6948813452546,-42.02024589728161,2.157575720532265,2.1429829561477676,0.6074568966826805,1.412855605920927,1.3007794764008902,0.3860826804183881,1.6561948712222894,1.0404465199138957,1.541345603414523,1.091497069625372,1.0226048595981034,1.0977558710200812,2.139905156270793,1.717057559107909,-0.22731486969999182
120,5173,5173,-2.574326261521227,1.7320488848845552,-0.7051082217296335,0.9706995800709158,0.985813168393028,-2.141877232340905,1.6984167947913513,-2.3823499035509785,-1.2701964431021533,-1.4700191833053933,-1.0126639344805755,2.440755278579149,-70.2609527187185,-59.25324582926635,-68.40749062110945,-55.4607103994657,63.356959260240586,1.6947789678621414,2.7707271874542663,1.460989475845702,1.5915417452822453,0.14011797578545893,3.2937986959399046,1.9124246202510604,2.82922943050398,1.5728289468372634,2.219901365478317,0.23228503490425362,1.4610441265492073,1.6956955378088099,2.2259763009346893,0.30392722705494124
121,543,543,-1.2703285769478647,-0.25269113160470935,0.40827600130562824,-2.4005992657758513,0.1867224878967571,2.5130954861102155,0.9538705871993682,-1.092298488534411,-1.8294428899854536,2.8253998140487253,-2.2973192748312794,3.0579148767376503,-13.576274241906944,-48.40176525763265,35.47772358623128,73.70262723885754,3.0343066804449856,0.9112817624463888,1.4972068898838313,0.9221823825966768,0.4365853983910427,0.9228915711631194,1.9542782072268021,1.9263898865835465,0.7059545354828615,2.0568229963421087,3.0547104984413957,1.9912541780763582,2.037154850112387,2.9635366800423104,1.3050839530722624,1.3164503098985698
122,4208,4208,0.5398985345919249,-0.7501292129445473,-0.6801843273097088,2.189758976909656,1.000193258718907,-1.2909378291927318,-0.3754380771811933,-1.3752779319642037,-0.8101518775762486,0.2754110068913571,1.1174247987919839,-0.29823365146339087,-31.335816482942214,61.017726313356135,65.12448496148988,-41.01142027399272,47.99198640074843,1.6543473726401097,2.1195022592813904,1.3550457589601437,1.973856018348217,2.28371001435091,1.6844228024107197,2.2512643751656003,2.6184724917868345,1.920457181627212,2.0538132814011107,1.6436506173902963,1.4174609857287437,1.4466824240664151,2.1022235812888708,1.675436396376102
123,6917,6917,0.8153221905345927,0.7616510997877944,0.16434855366214451,1.5685601139267764,3.592210514802517,1.304163375940325,-0.19769781859257718,2.0749615283438514,2.1300394367130195,-0.7223773596824079,-1.040086521513827,-0.8033919000506659,5.115654359497349,35.29926719530034,41.980571443631234,-8.121724099247034,-43.96035526027418,1.2736219479511668,0.8671814258961463,2.119508457888118,1.0509245366008484,0.41997740747163376,1.4260245199241743,1.5669408027875402,1.97815956823971,1.3285708436070678,0.052540442655523156,0.48854782818349785,1.7958038533895218,0.44972286878991957,2.6682684268870203,1.9890709090216743
124,4011,4011,2.4053428520054925,-2.3309448792103145,-2.7123815532358213,0.9916992863939085,-1.7204760217268584,-0.7465154346669496,-1.8685175850949618,0.978812179890777,2.9575476884406893,0.49038440878109146,0.9989283307553883,1.2129353121590263,42.431436796666326,-32.61457213641228,-18.428882380263392,-23.088771183429763,49.54649153405965,0.736105261170561,1.622962756855374,3.281150039644679,1.1487386317959836,2.218046435968809,1.8055252668697714,1.126938776165643,2.014353826528252,3.2305269207087006,1.5987329475522996,1.4540734686855248,1.9404662480204586,0.9324537020358437,2.820686511606749,0.3797395259563846
125,1801,1801,0.8345905206300696,-2.4122213376840365,1.5685128912410122,2.8186543874811205,-2.5860222324138564,-1.454317773402602,2.212814749432199,-2.4152502199730144,0.7159464017727053,1.933508702654648,0.08193140393261514,-1.4305758619522906,-33.24750151041267,-15.296783611038505,-21.37396577310914,20.1969297924699,48.45440010170841,0.6419588575676798,0.0280208997075182,0.7696146919877935,2.4850372219604795,2.4676291574315083,1.6548794334534802,1.5859205953403475,1.0820876007876448,0.6710323646497721,2.325494563268511,0.10010023920442324,0.41641593199257904,1.6950725386037488,1.835939057441303,2.7181480511841407
126,3126,3126,0.03957597096537924,-0.22393520481891377,0.8739698611601143,-0.48805338039707,0.36846731638052965,2.2790940125987396,0.11637329822260134,0.3128433050732625,0.3786557240586924,-0.83388477262873,-0.11447269107877425,-0.413222942236257,-30.482696052388953,-34.47075270572923,68.12001492240067,17.362223393632352,68.31377838528647,0.8117972744315743,2.2618416781551396,1.2747506200172558,1.3186701014376632,0.5340440911348707,1.1157055211742812,1.6127640098603981,3.9063155743120133,1.5235986146765015,2.4193088630253947,0.2519391267036876,2.1162062736219096,1.2400140858253803,0.07207407194611881,1.37340656087979
127,7161,7161,-0.3389478280177618,-1.2325991591405847,-0.20037165467366455,0.4129222523424162,0.9255545128120348,-0.6739058015810089,-0.9222305535851321,-2.2958794346408573,-1.7216127140176956,1.6922585478169048,-1.8147928063340544,-0.19723147237755345,-73.48039737746092,-30.45389702711711,58.46121964291125,-45.451656882935175,-65.52900933521813,2.3713627769299013,1.012751034029107,1.4081197810961246,1.4580784208109951,0.7405031839266204,0.7326534718608353,1.6895522140630037,0.5913238858320686,0.3266713132734923,2.7533539626766186,1.882809796591681,0.8431455968837097,2.039740402448344,2.5041091640615436,1.2240807675066996
128,3080,3080,2.106463611103495,-1.34875708964209,1.3400979988973156,-1.6926259506874202,-1.5577198691718195,0.2639063513956782,0.8577252959028304,0.31170972374931105,0.8766262958512872,0.24985508896818803,-1.891196563238045,-0.6913192594694582,-19.59908439787545,25.089291868184507,-47.7194212652155,-9.511573714264477,-22.80571046192149,0.28568032926984005,1.0618828788263042,1.9785611884734717,0.3682787276499448,0.5066251873795364,1.7845753931450032,0.3565968103709276,1.5794759205860849,0.7904095991253224,1.058180167961435,0.9685880259716928,0.4981579826256857,1.87670418461764,1.8367482362107006,1.3638500683367647
129,8149,8149,0.2535720555858494,-1.5240173001947679,3.1409256696394943,-2.324059910022746,1.26018152210597,1.973339478256721,-0.5052370561675179,1.15075020629716,0.27892817733960196,0.7250737327870698,1.5066892172913178,-0.17150828279006153,58.53832233513198,-59.87892485872113,65.88841853663115,32.87694862564816,35.10914387499426,1.1639438332487742,2.5824850196241225,0.7815885259846653,1.45641186325184,-0.19568938766653943,0.9120310578413089,1.0355303733697594,0.5859290626503137,2.3506565244233455,0.8876104378934582,1.7783124684015206,3.2126535391157978,0.8789529362129783,2.2962888424768315,1.87132886866119
130,4370,4370,-1.4343179640014738,1.35354751797489,-1.396929395499878,2.5885059354303985,1.2667960243431982,2.796933766339285,1.744423964644446,0.38417446070384786,-1.7588898402869764,2.078437627016393,-1.705687459782259,-0.17755533673465437,20.134164137151313,-13.574257635490673,38.00057101678439,-48.07550638744357,-32.01303894078585,1.0175663800230275,2.091629751772771,0.5658050486726118,1.2857818248999233,1.7835090919968888,-0.07845386462792564,1.2735408307289202,1.9178758108085143,2.7315691073789568,2.1563798882403926,2.1494518392141098,3.243079562003032,1.5969563818453714,2.2506587302410503,2.0489315525694587
131,7585,7585,-0.4635557374339439,0.9425695981451232,1.3577925437970597,1.0096504527199428,1.4063093103829072,2.4400789017509177,1.4102163617010413,-0.7644926973218339,0.49670099553961566,-2.129424478036409,0.038990312775896006,0.4542591127278312,-33.65977108047066,-5.869663275034418,49.72607699709185,-34.681555859980314,-51.41537759497069,0.17158303875507214,1.2760015097448771,0.68450053617418,0.8905473063251141,0.12343229615742751,1.2815953849984696,1.4564858748186784,1.7973180034874556,1.6260427888522142,2.070602673410179,1.0992750501152333,2.2496295200711587,0.39250036573944475,1.2807074769878417,2.4615547570197442
132,7746,7746,1.8694937417910973,-2.61941258985393,1.0287905722041684,0.14027258134430032,-1.8132762550736203,-1.2201355317253337,0.7092364618656735,-3.211303168219733,1.200186590503106,1.5756909181731922,0.12683426154222352,1.8788927500592243,37.018185408236775,25.74535008311133,-68.81489919810018,63.82878848966,-34.98360700277935,1.1382149357176932,1.3047333973309094,2.546643906429202,2.3335034702543904,1.2111043718172174,2.3859022426471608,1.889788469170457,1.5875508335215534,2.503959775173104,0.6108952173990229,1.5371021673833503,1.265190166241435,1.8925687077489468,0.5629225142919123,1.6277122694030002
133,3955,3955,0.15600165595562365,1.6203380459033596,1.1138676648470187,2.7146736562371245,1.904722534660677,1.756291684958715,-1.3608320591409924,1.9992551595214245,-1.8686127827344028,-2.4593271674270922,0.5775948687702536,2.6565324941845083,-12.198449143294864,67.71844765316045,-30.837886602489704,31.615017397971165,-38.296171506143295,0.026894833934776097,0.5620604126131841,2.632000189645402,0.8353039354935301,0.34397600767170344,1.9064729862509573,0.03475860410699522,2.8299954776488194,0.48220295666047286,3.122208585901183,2.824337776476048,0.7192038923343322,1.2218013714667295,1.7930583121924406,2.0771897563751223
134,6867,6867,-0.004384417772954063,0.08149273190153783,0.7599961694108888,0.30941525402283565,-0.7476661010045744,1.6535829821752976,-1.7176992661981403,1.574547541990838,2.5744736932820493,0.2986259356614327,-1.247901879274801,-2.739102957279782,-33.20244709045824,-40.589978596375936,-67.9173842228773,-40.072147631828614,-55.75599838290267,0.5441121673233278,1.9643662032429208,2.582233394978936,2.627413702350103,1.42218511564113,1.4083004445269212,1.0124635675968685,0.661141229359677,0.7456274713307913,1.8628642683805097,0.06961045836932661,1.891291663674959,0.9735230164365922,0.9311869696881416,3.4571409195471974
135,5822,5822,-0.3010252437909449,2.2202476881114555,-0.17006156307526382,-0.32783385302444157,1.1510199324735473,-0.3275089681431351,-1.906897708492291,2.209060979376997,1.414492167570892,2.4492163330110253,2.518784222616192,1.3077518737050755,-70.68587194265379,49.45274352895147,-34.190712007754804,11.498158016534376,20.16856340972578,1.5122416752211894,2.594685300025105,1.2568756443537072,0.5303885865952274,0.6874160473326816,3.2788931231837903,2.6779639225876632,2.842491995015461,2.1865059394054134,3.08702014342751,0.49830637105635955,0.8631992451483748,1.1863111235107389,2.4684749870273306,0.553128664097513
136,5292,5292,1.0437119767861511,1.8179618473752068,-0.41009504390891793,2.244296054108105,-1.4969769074752384,1.5032937152542671,-1.3964657832792926,-0.6577081139620659,2.692925854308971,0.67780536812926,1.6409519250812528,-2.432437990574714,-51.39969791497574,63.065311241803485,51.417275568025744,-14.084570139101636,-37.92563938722695,1.327771664405394,0.2836936520430257,1.2222639118390153,1.4323656084673682,2.452047738534344,1.7296259472439215,0.9905577685866737,1.0375493998124234,2.2385792601192875,1.9370229752276118,2.126784847714494,0.04949919856331375,0.7904314094403524,2.7599751119993385,1.4385376087558757
137,4278,4278,-1.4291566292117477,0.22663989922603445,2.152045606286271,-1.3117977652488166,-1.0538634820357138,1.2854145090266957,0.7887150961658838,-0.19544305796406408,2.2355494515366,2.6635699172104097,1.43070934672866,1.8688595265706962,72.59950946424665,31.803025799976375,-59.33506949373313,29.304293610622175,-4.369166136253567,0.05507188204429747,1.0365661260270356,1.9906581564930028,0.3821392923682283,1.6938542865774795,0.003086691045525114,1.6798405736264788,0.4055418990041621,2.8749972479631127,0.38574616937816764,0.6591729564934987,0.34942308433510944,0.5736914338434526,2.1854226292662204,1.3082046352447876
138,5069,5069,0.7376087726798877,-2.395442686384727,-1.1447267617797128,0.9025097235317947,-2.2584944803310307,0.49673667007821204,1.5041165829423015,-1.6518697525602555,1.0863339032093433,2.988742037948839,2.189130174108531,-0.8922916061174981,4.44862095361135,-43.388250512849275,52.10105837985094,-64.95657267564424,-37.7005971732747,2.0928471347058393,1.5376350820447988,1.4837177037103466,2.4091583061258675,0.24722474674613654,1.4760298104328167,1.4093924146096986,2.5028117211240097,1.802231697555471,1.4568258257523516,1.1824770020422033,1.990974767189733,0.7075667890785992,0.41303663178939565,0.8158670750926587
139,3247,3247,-1.9600537195646919,0.4429220673083008,0.3990282258716354,-1.0892130677449747,1.2083604085627675,-1.8992596909257378,-0.16851703884842165,-0.11738931047692897,1.3294654777854038,-0.18002431360564897,1.6027758173054112,-0.18094798009348134,-10.943694048182872,-28.825225977353174,-55.92314744919736,-33.678349563134056,-66.73931987480869,2.0780560042981384,0.9201884632349914,1.6636249260291682,1.9678198705474077,1.234368460077553,1.6394343504374573,2.3054238499949062,1.4282007186302965,1.4595949019020078,2.3870742175251998,1.7714253799520616,1.5406280202488327,1.4661751957554705,2.473701570921449,1.1184035311452294
140,1656,1656,-1.6834501930113137,-1.2654034257614386,-0.3793841820061449,1.4072657033721463,2.5999792107015214,-1.8300381799805678,0.6916312713770916,-2.5788144282181724,-1.9709598417136447,1.7005144762135975,2.993626462896726,0.985267849018048,-19.886669101958656,49.44160106643573,-8.33184935121764,28.46090773475525,17.393639020217783,3.0684483608996267,1.029795375964948,2.145259535771991,2.1633303733535882,1.2583970448707145,2.7621147778927533,0.2580216664706368,3.6845648318343045,0.16508725909230304,1.1963671815091454,0.6586873253379824,1.6188499284531068,2.5715719841920235,1.8153623722423926,1.825045463110221
141,1663,1663,0.511837374180597,-1.6923594073791253,-0.6613510543860084,-0.14521704112225364,-1.209553991123296,1.1662123724663878,-0.9430224271285123,0.04699775323971378,-0.6187037671789507,1.7271311991850655,-1.125441662792154,0.7740062381319353,-47.303086058536884,-7.995153028608584,-4.983134982568501,-73.4870489584171,20.731490671041136,2.0141205249075016,0.5928112623411456,2.08147781496926,0.40208320886810345,1.0512279276111864,1.7442852504143846,2.303013839408745,0.7265342112201043,1.1627787569826349,0.8748302398278855,2.4861287235362006,1.818937174765431,2.1709621394506673,1.689244192247893,2.0263091568217693
142,1276,1276,1.5518515118124592,2.3725666881164185,0.38772276864701666,1.6889212040049757,1.75087039117533,0.30372403111498775,0.3310102101981572,0.9983126412875319,1.9395030321041897,-0.9042555448268086,2.5982140960753997,-2.070954280848248,-48.285606098542445,37.78227975980384,0.3450415425389933,-22.8158342106369,18.802330698576732,1.051904872809708,0.6441075716628339,2.0418554726380114,1.0600179208745175,1.448598290652096,1.2325889246014783,1.801565489131981,1.189417407408488,2.109762856509173,1.909794031841164,0.3009642298584307,1.282914266145075,2.754868558782207,0.9784156595652038,1.2105716133103226
143,6611,6611,-1.709360326645675,-1.1897345770715482,-0.7084883726422486,1.5536241850670613,-2.2831936924148195,1.3896959932407638,0.4236683523345047,-0.15089900113247556,-0.8413775040012703,-0.7948226404617673,1.7673916561114384,-2.5689498687626977,16.647256801647682,71.51636164871702,-65.86674764534551,58.026767418143464,14.748296785108314,1.60974253413249,0.9979172211277366,1.3926604355068908,1.911343476983487,1.6573849738529118,0.59982251179369,3.0969999436845583,3.257246555154958,2.609848388863705,1.2006678240124582,-0.2517589744034698,1.4013415076496127,1.2272032383764742,2.101799772929436,1.532258878410446
144,2797,2797,-1.3341474191659801,-2.7597564501160794,2.573818240015446,-0.04351278849869289,2.0605373518540233,0.39869008480346385,0.09238480337360211,0.02968739655016317,-2.141853651266735,1.974644675824637,1.3399314725153548,-1.4385480779109967,32.9187431145557,-36.588497952832974,-12.379513660716881,-9.157619603220304,30.14963414666057,2.3608364935973842,1.060088069888174,1.7090028349670945,2.662631188160886,2.834681353140352,1.7718196944543703,0.9385679245385024,2.7206699586648657,2.114027108248637,2.4673910020862824,0.23202573801734896,0.15641333537714108,1.212264324370397,0.9766759294855891,2.620748581659667
145,5681,5681,2.2917054179996432,1.697868487120325,1.2669817773372,-1.3300513780501992,-1.4669351026047075,0.49225962678988194,-0.2086949131358772,0.9570198791742235,2.551617710418517,1.799183768169773,-1.8825056042961776,0.8972544092995509,42.99692157549125,34.20739412667663,13.009327321643646,68.93508873750761,-58.762165771935415,2.5735773354292166,2.4632378659908776,1.9896083284362893,1.6544096493750158,0.7173474955940781,2.4787048155107305,2.844972085071655,0.9201621897524546,-0.09530649644959877,1.9349417007793561,1.8723704752219397,1.3051936331484477,2.398617341299212,1.6615465698030767,1.3729741885777809
146,4374,4374,-0.34086373693378513,0.3615355595518988,1.3521459399846645,3.298072317728634,-0.7474943503892153,-1.4778688012560222,0.2697933244889678,2.565242208068317,2.486131377021547,0.2357938363655351,2.0796932291614247,2.8704323843734985,47.01128651440634,19.14008206683455,-17.865666676310305,-68.29853815967645,56.24467010191748,1.2958624884214731,1.867887733158152,0.7373296001809133,2.013451386111325,1.4602067263898508,1.0066864886448752,2.5306531079041745,0.9378275644143117,1.3091501432475101,2.078547845526773,1.873083857992745,-0.04121278458546418,2.0866795343871405,1.255716301891739,2.8786076021713543
147,4720,4720,-2.45783097306309,-1.7043715818587477,-0.29238227718208865,0.6959111683591023,-2.051308682529857,-0.04352242617204061,-0.8954458140444097,-1.0809559863741414,-1.5306117250679219,-1.3152358729061995,2.3831582220566774,-1.6902454412174321,38.09059261588705,45.30512784263875,24.894505868009702,-3.565634439423116,-26.493161096499705,2.2330452573649824,1.3576863729350706,1.7963754151294138,2.799297869890928,-0.001415379519281279,1.7617805299388165,2.259551053572815,1.0637901517266122,2.5331805783403576,0.8385782307723968,1.422763206386664,0.6383166524532722,2.116055676330474,0.9059184314668814,1.260690218564249
148,4017,4017,1.7653269460155918,2.297079015858182,-1.8677333207214346,-0.27592312157736654,-2.568702020805956,-2.6879365342312473,-1.843767019387349,-1.244676948362097,0.9100630402240936,-0.5111129063898834,0.44997290830238995,0.0021618212055840302,-69.03978424085741,75.62551930283537,-45.60262494436668,-15.95735549009962,-71.35157527948898,1.6467041483131535,0.6596604544517675,1.3778645615342398,1.0715360145520605,1.9418084283515538,1.66762333249398,1.6164902758785227,0.7502149344501681,1.440846844610347,3.4617482764863494,1.864923688039531,3.78216965671497,1.4875141833519492,1.2810258159587171,0.8280215322543326
149,4317,4317,-1.6979212571409046,1.3849161550061297,0.3799074680163693,-0.5366216813338525,0.5395332648627308,-1.7852606039631866,0.4542999951839748,-0.12421976252871003,2.5727832493102225,0.27057423412601755,-1.5173518467833143,0.8936796251334782,-36.54217403039525,67.59028933549591,11.383875031096782,-19.053031401778423,40.52822235552471,1.9900263439323316,1.276945493166322,3.6293359669959466,1.0863241136215156,2.7608825393857277,0.4113607936417726,3.237718656172042,-0.3995973341755252,0.31473939927642114,3.231067417688583,1.7745074067282571,0.663955379475254,1.8275437471706926,2.3710137683168084,2.442662672138898
150,1212,1212,0.08633257455833389,0.8806259510518026,-0.40454735044357154,1.5227142308598167,-1.6919395025697017,-1.967308088832935,-0.7336289430067128,0.09670468504947705,1.2917993569699178,-2.440120526285116,0.8285399132899518,-1.4460346021258583,-43.33582227858886,-53.230294795878116,19.460815370419777,-12.662818197258353,29.27210330956338,1.0938305886118316,1.172973376064685,0.8792843710858633,2.1688976063782626,1.8765943429053522,3.3337182693086413,0.8269297195770285,3.3692648268038456,1.7032865984493917,2.3514548084501654,2.1864759342789597,1.4813460243623633,0.7413487867822284,1.4937601809138181,1.8407852542416678
151,4891,4891,1.179510717056754,-2.194289987283337,0.7795818512371941,2.0647649548391676,1.5683336162307775,1.3017342638289306,1.2148409542662013,-2.3320178145454338,1.4176623188108088,-1.3232813237167051,-0.6815405547610929,2.2001619239415664,-73.98217428178751,-39.29723836424364,-49.589971911591945,-5.051141674347779,26.98829850149948,2.315499223531731,1.572980904117367,1.4598415765794153,1.7027232099159226,1.88552284860942,1.3964333824324715,1.3541285578532667,2.326888652905035,2.0286277397140604,1.4506950324403767,0.5344166498587029,2.719837855322493,2.079830648086996,2.0205453295534834,1.3623791867514428
152,6146,6146,-1.256013772624066,-1.5870046390913812,-0.950289379194792,-2.3739325684745207,0.8462553391296459,1.2837237771465542,0.5808140005637363,-1.7289320981212268,0.7457507079327821,-0.5175209980232467,0.46321462565608623,-0.2763944485661244,-9.951991052182104,55.80036117345908,-20.371691004784353,25.930930549416278,-45.245273037396494,0.9998723450914322,2.718954040975313,2.504351721202449,1.3194537911698216,1.9719107011480839,2.2931095615634534,2.5841017586382424,2.749944023212703,1.4466523347896623,1.3328171557780795,1.6108084477159246,1.1775700039791601,1.5539167087065928,1.163776882115421,1.534266294044815
153,8165,8165,-0.2076998727862497,-2.5470282640915003,-2.019162955504362,-1.6435174015026228,-2.3801982709448195,1.4813688139741141,-2.0614147204445663,-0.15543558534090784,1.295810929614729,0.12702842451971041,-1.1468013789452975,1.8194796515044083,-9.633984016147542,13.695190726300213,49.932612125819915,-60.0645312184942,59.5919975031046,1.8077337862824723,2.1067560048576097,2.091531444695433,2.616323796524017,0.2271000427485555,2.6221136160873026,1.6241950619161194,2.429427487129852,0.813418098908073,0.6930479190599768,2.4834031934462515,1.7569171213782908,1.6875985735235204,1.7612484171502398,2.4766527285436815
154,6181,6181,-0.6778903593310049,1.8794955061052823,-0.848808286471458,-0.8148782318837638,2.7933666774496597,-1.3024089156876635,1.3871159429777065,1.2160264451380052,1.3348694125053653,0.8124222613838245,0.688729317865922,0.0763776867759313,-31.973673196900684,69.85364751057583,-34.51723622758219,70.32914405332454,21.716995649358342,0.7598560385343729,1.4177226778684955,1.2705451958493026,1.6461006168238934,1.7571240372166268,0.43955831095392245,1.175681792360034,1.7191364265879918,2.16367591302912,1.5716685016013083,2.418456701213128,1.8196856031037496,0.8729972534180923,2.983584036899784,1.0515217329622049
155,5324,5324,1.1657735767214195,-0.8628515775729527,0.9648918102285047,-0.1278586013269466,0.26951316083439564,0.506121493124388,-0.5440063300917359,1.136804448484121,0.2376289948949049,0.9565312553830392,-2.2211537003345705,0.6625690654951634,7.477721298613835,-18.891194722918424,50.867738780017724,-69.13946145127002,-44.34576708223981,1.1072556856746925,2.6298400785394587,2.10307202995996,1.891927113325763,2.404449118949663,0.5726077036555739,-0.37092709885195096,1.4357942603725784,1.6916311910765094,0.6490422249133676,0.9511159907587745,2.341990110852317,2.5341070944873243,0.9094069275501093,1.7066817779110321
156,683,683,-1.2990257267049272,1.9844923864762514,0.4815562761176242,0.09802781115470083,-0.029920435352688513,2.7917305769754734,2.402603667369283,1.4306983974071972,-1.2682160077211713,1.039845519643472,0.009178363949393559,0.7322741698747803,20.124501932434576,27.44803011884162,64.93057436822072,25.90597425576915,-67.2232861462435,2.334073250457433,1.8751471906881352,1.596849827782945,0.9468786410620432,1.5820118845695286,0.5801628171946904,2.1719305940120806,1.0228845795237735,1.4115190994839764,2.8435305268673208,2.882207685760834,1.3461237213824297,1.8570295732375277,0.908558006180334,3.254030990074326
157,6257,6257,0.5777145485794377,-2.0947866111696163,-0.6298969953145215,1.2660586183631084,2.705650905256707,-2.5338257095117003,-0.489574571650243,2.9235694795984526,1.0350141993418773,0.5086267377850987,1.8738015525070275,-0.010771332883892537,-17.111185225685436,5.690360014606118,52.44815080929748,-43.16829453134929,68.6978494140387,1.3017867111690442,1.2903429124454093,0.7763361209813547,0.7914582481469641,1.7724812030838293,2.897450778610993,1.0629353554964653,-0.033628968401428316,2.106710813908692,2.0836482894675368,2.2743295165951665,0.9056171256102433,1.7578754304347006,1.7600673387028,0.9344119683969733
158,7468,7468,3.1945950488199335,0.6836297330251575,1.6004160852441518,1.4899154217889208,-1.3439279257328234,2.474988234568107,-1.411437920014466,2.0177685268535916,-0.06453657157817305,2.0993606663208,-1.1390077589691248,1.2042956968091807,-39.259955635247486,-23.56565620797852,13.639308426308743,-18.093809798799217,-70.52901310477986,1.9955100921072726,1.2744422922523837,2.3834479699249913,1.9476912381705165,3.487696422035322,0.6615057998398501,1.2026307990606635,1.649456808158424,1.3637249529076914,1.747202752633309,0.5703609973188423,1.1524735373473538,1.4698721990379089,1.8607828377471927,1.559331987739526
159,1269,1269,0.7114792225590045,1.4365270558123804,-0.8452040528394902,-0.3056058266170377,1.9494845868842892,1.2689663924881347,-0.5582644146889051,-2.3890114567412453,-0.8409936222278794,0.6441628476299921,0.5888247795418642,-0.6614933609059821,15.870051955115585,-69.02351431316744,-41.760029902848494,28.946997400604214,-40.95396130725515,0.38457842668419684,1.0683182057348917,1.0387045167280202,2.8874160252539833,0.863490649239431,2.5179251644862437,3.2134533723507444,1.7340200695156265,0.09135103092165153,1.475943001443126,1.2941339083442385,1.691915574418362,2.6731677213767933,2.0810316228895718,1.2411584202797108
